;START_OF_HEADER
;HEADER_VERSION:0.1
;FLAVOR:Griffin
;GENERATOR.NAME:Cura_SteamEngine
;GENERATOR.VERSION:5.3.1
;GENERATOR.BUILD_DATE:2023-04-19
;TARGET_MACHINE.NAME:Ultimaker 3 Extended
;EXTRUDER_TRAIN.0.INITIAL_TEMPERATURE:205
;EXTRUDER_TRAIN.0.MATERIAL.VOLUME_USED:25258
;EXTRUDER_TRAIN.0.MATERIAL.GUID:506c9f0d-e3aa-4bd4-b2d2-23e2425b1aa9
;EXTRUDER_TRAIN.0.NOZZLE.DIAMETER:0.4
;EXTRUDER_TRAIN.0.NOZZLE.NAME:AA 0.4
;BUILD_PLATE.INITIAL_TEMPERATURE:60
;PRINT.TIME:9252
;PRINT.GROUPS:1
;PRINT.SIZE.MIN.X:9
;PRINT.SIZE.MIN.Y:6
;PRINT.SIZE.MIN.Z:0.2
;PRINT.SIZE.MAX.X:170.009
;PRINT.SIZE.MAX.Y:145.79
;PRINT.SIZE.MAX.Z:22.4
;SLICE_UUID:cbf0a4d1-f79a-425d-b08a-6d50f8e772a9
;END_OF_HEADER
;Generated with Cura_SteamEngine 5.3.1
T0
M82 ;absolute extrusion mode

G92 E0
M109 S205
G0 F15000 X9 Y6 Z2
G280
G1 F1500 E-6.5
;LAYER_COUNT:113
;LAYER:0
M106 S255
M204 S1000
M205 X20 Y20
G1 F600 Z2.2
G0 F15000 X64.542 Y13.579 Z2.2
;TYPE:SKIRT
G1 F600 Z0.2
G1 F1500 E0
G1 F1800 X65.057 Y11.835 E0.0228
G1 X65.506 Y10.962 E0.03511
G1 X67.073 Y9.339 E0.06341
G1 X68.53 Y8.368 E0.08536
G1 X70.716 Y7.724 E0.11394
G1 X162.647 Y7.724 E1.26679
G1 X164.391 Y8.239 E1.28959
G1 X165.264 Y8.688 E1.30191
G1 X166.887 Y10.255 E1.3302
G1 X167.858 Y11.712 E1.35215
G1 X168.502 Y13.898 E1.38073
G1 X168.502 Y71.903 E2.10814
G1 X169.365 Y73.198 E2.12765
G1 X170.009 Y75.384 E2.15623
G1 X170.009 Y139.485 E2.96008
G1 X169.52 Y141.577 E2.98702
G1 X168.111 Y143.704 E3.01902
G1 X166.51 Y144.869 E3.04385
G1 X164.149 Y145.79 E3.07563
G1 X68.98 Y145.79 E4.26908
G1 X67.229 Y145.273 E4.29198
G1 X66.256 Y144.725 E4.30598
G1 X64.739 Y143.253 E4.33249
G1 X63.773 Y141.804 E4.35433
G1 X63.129 Y139.616 E4.38293
G1 X63.129 Y75.065 E5.19242
G1 X63.815 Y72.74 E5.22282
G1 X64.542 Y71.985 E5.23597
G1 X64.542 Y13.579 E5.9684
G0 F15000 X64.942 Y13.638
G1 F1800 X65.43 Y11.985 E5.99001
G1 X65.835 Y11.198 E6.00111
G1 X67.331 Y9.648 E6.02813
G1 X68.701 Y8.735 E6.04877
G1 X70.775 Y8.124 E6.07589
G1 X162.588 Y8.124 E7.22725
G1 X164.241 Y8.612 E7.24887
G1 X165.028 Y9.017 E7.25997
G1 X166.578 Y10.513 E7.28698
G1 X167.491 Y11.883 E7.30763
G1 X168.102 Y13.957 E7.33474
G1 X168.102 Y72.07 E8.0635
G1 X168.235 Y72.224 E8.06605
G1 X168.998 Y73.369 E8.08331
G1 X169.609 Y75.443 E8.11042
G1 X169.609 Y139.437 E8.91293
G1 X169.146 Y141.418 E8.93844
G1 X167.817 Y143.424 E8.96862
G1 X166.319 Y144.514 E8.99185
G1 X164.073 Y145.39 E9.02208
G1 X69.039 Y145.39 E10.21384
G1 X67.382 Y144.901 E10.23551
G1 X66.5 Y144.404 E10.2482
G1 X65.048 Y142.995 E10.27358
G1 X64.14 Y141.633 E10.2941
G1 X63.529 Y139.557 E10.32124
G1 X63.529 Y75.124 E11.12926
G1 X64.172 Y72.946 E11.15773
G1 X64.942 Y72.146 E11.17166
G1 X64.942 Y13.638 E11.90537
G0 F15000 X65.342 Y13.697
G1 F1800 X65.803 Y12.135 E11.92579
G1 X66.164 Y11.434 E11.93568
G1 X67.589 Y9.957 E11.96142
G1 X68.872 Y9.102 E11.98075
G1 X70.834 Y8.524 E12.0064
G1 X162.529 Y8.524 E13.15629
G1 X164.091 Y8.985 E13.17672
G1 X164.792 Y9.346 E13.1866
G1 X166.269 Y10.771 E13.21234
G1 X167.124 Y12.054 E13.23168
G1 X167.702 Y14.016 E13.25733
G1 X167.702 Y72.223 E13.98726
G1 X167.902 Y72.446 E13.99102
G1 X168.631 Y73.54 E14.00751
G1 X169.209 Y75.502 E14.03316
G1 X169.209 Y139.389 E14.83432
G1 X168.772 Y141.259 E14.8584
G1 X167.523 Y143.144 E14.88676
G1 X166.128 Y144.159 E14.9084
G1 X163.997 Y144.99 E14.93708
G1 X69.098 Y144.99 E16.12715
G1 X67.539 Y144.53 E16.14753
G1 X66.742 Y144.081 E16.159
G1 X65.357 Y142.737 E16.18321
G1 X64.507 Y141.462 E16.20242
G1 X63.929 Y139.498 E16.2281
G1 X63.929 Y75.183 E17.03463
G1 X64.528 Y73.153 E17.06117
G1 X65.342 Y72.308 E17.07588
G1 X65.342 Y13.697 E17.81089
G0 F15000 X65.742 Y13.756
G1 F1800 X66.187 Y12.248 E17.83061
G1 X66.493 Y11.669 E17.83882
G1 X67.847 Y10.266 E17.86327
G1 X69.043 Y9.469 E17.88129
G1 X70.893 Y8.924 E17.90548
G1 X162.47 Y8.924 E19.05389
G1 X163.978 Y9.369 E19.0736
G1 X164.557 Y9.675 E19.08182
G1 X165.96 Y11.029 E19.10627
G1 X166.757 Y12.225 E19.12429
G1 X167.302 Y14.075 E19.14848
G1 X167.302 Y72.379 E19.87963
G1 X167.569 Y72.668 E19.88457
G1 X168.264 Y73.711 E19.90028
G1 X168.809 Y75.561 E19.92447
G1 X168.809 Y139.345 E20.72434
G1 X168.399 Y141.098 E20.74692
G1 X167.229 Y142.864 E20.77349
G1 X165.937 Y143.804 E20.79352
G1 X163.921 Y144.59 E20.82066
G1 X69.157 Y144.59 E22.00903
G1 X67.696 Y144.159 E22.02813
G1 X66.984 Y143.758 E22.03838
G1 X65.666 Y142.479 E22.06141
G1 X64.874 Y141.291 E22.07932
G1 X64.329 Y139.439 E22.10353
G1 X64.329 Y75.242 E22.90858
G1 X64.885 Y73.359 E22.9332
G1 X65.742 Y72.469 E22.9487
G1 X65.742 Y13.756 E23.68498
G0 F15000 X66.142 Y13.815
G1 F1800 X66.571 Y12.361 E23.70399
G1 X66.821 Y11.906 E23.7105
G1 X68.105 Y10.575 E23.73369
G1 X69.214 Y9.836 E23.75041
G1 X70.952 Y9.324 E23.77313
G1 X162.411 Y9.324 E24.92006
G1 X163.865 Y9.753 E24.93907
G1 X164.32 Y10.003 E24.94558
G1 X165.651 Y11.287 E24.96877
G1 X166.39 Y12.396 E24.98548
G1 X166.902 Y14.134 E25.0082
G1 X166.902 Y72.539 E25.74062
G1 X167.236 Y72.89 E25.7467
G1 X167.897 Y73.882 E25.76165
G1 X168.409 Y75.62 E25.78437
G1 X168.409 Y139.301 E26.58295
G1 X168.026 Y140.937 E26.60402
G1 X166.935 Y142.584 E26.6288
G1 X165.746 Y143.449 E26.64724
G1 X163.845 Y144.19 E26.67282
G1 X69.216 Y144.19 E27.85951
G1 X67.853 Y143.788 E27.87733
G1 X67.225 Y143.435 E27.88636
G1 X65.975 Y142.221 E27.90821
G1 X65.241 Y141.12 E27.92481
G1 X64.729 Y139.38 E27.94755
G1 X64.729 Y75.301 E28.75113
G1 X65.242 Y73.565 E28.77383
G1 X66.142 Y72.63 E28.7901
G1 X66.142 Y13.815 E29.52766
G0 F15000 X66.542 Y13.874
G1 F1800 X66.955 Y12.474 E29.54597
G1 X67.109 Y12.184 E29.55009
G1 X68.363 Y10.884 E29.57274
G1 X69.385 Y10.203 E29.58814
G1 X71.011 Y9.724 E29.60939
G1 X162.352 Y9.724 E30.75484
G1 X163.752 Y10.137 E30.77315
G1 X164.042 Y10.291 E30.77727
G1 X165.342 Y11.545 E30.79992
G1 X166.023 Y12.567 E30.81532
G1 X166.502 Y14.193 E30.83658
G1 X166.502 Y72.702 E31.5703
G1 X166.903 Y73.112 E31.57749
G1 X167.53 Y74.053 E31.59167
G1 X168.009 Y75.679 E31.61293
G1 X168.009 Y139.257 E32.41022
G1 X167.653 Y140.776 E32.42979
G1 X166.641 Y142.304 E32.45277
G1 X165.555 Y143.094 E32.46961
G1 X163.769 Y143.79 E32.49365
G1 X69.275 Y143.79 E33.67864
G1 X67.966 Y143.404 E33.69575
G1 X67.468 Y143.113 E33.70298
G1 X66.284 Y141.963 E33.72368
G1 X65.608 Y140.949 E33.73897
G1 X65.129 Y139.321 E33.76025
G1 X65.129 Y75.36 E34.56234
G1 X65.598 Y73.772 E34.58311
G1 X66.542 Y72.792 E34.60017
G1 X66.542 Y13.874 E35.33902
G0 F15000 X66.942 Y13.933
G1 F1800 X66.942 Y72.954 E36.07917
G1 X65.954 Y73.979 E36.09702
G1 X65.529 Y75.419 E36.11585
G1 X65.529 Y139.262 E36.91646
G1 X65.975 Y140.778 E36.93628
G1 X66.593 Y141.705 E36.95025
G1 X67.747 Y142.826 E36.97043
G1 X68.079 Y143.02 E36.97525
G1 X69.334 Y143.39 E36.99166
G1 X163.693 Y143.39 E38.17496
G1 X165.361 Y142.74 E38.1974
G1 X166.347 Y142.023 E38.21269
G1 X167.281 Y140.612 E38.23391
G1 X167.609 Y139.213 E38.25193
G1 X167.609 Y75.738 E39.04793
G1 X167.163 Y74.224 E39.06773
G1 X166.57 Y73.334 E39.08114
G1 X166.102 Y72.869 E39.08941
G1 X166.102 Y14.252 E39.82449
G1 X165.656 Y12.738 E39.84428
G1 X165.033 Y11.803 E39.85837
G1 X163.804 Y10.617 E39.87979
G1 X163.639 Y10.521 E39.88218
G1 X162.293 Y10.124 E39.89978
G1 X71.07 Y10.124 E41.04375
G1 X69.556 Y10.57 E41.06355
G1 X68.621 Y11.193 E41.07763
G1 X67.435 Y12.422 E41.09905
G1 X67.339 Y12.587 E41.10145
G1 X66.942 Y13.933 E41.11905
G0 F15000 X67.342 Y13.992
G1 F1800 X67.723 Y12.7 E41.13594
G1 X68.879 Y11.502 E41.15681
G1 X69.727 Y10.937 E41.16959
G1 X71.129 Y10.524 E41.18792
G1 X162.234 Y10.524 E42.33041
G1 X163.526 Y10.905 E42.3473
G1 X164.724 Y12.061 E42.36818
G1 X165.289 Y12.909 E42.38096
G1 X165.702 Y14.311 E42.39929
G1 X165.702 Y73.038 E43.13575
G1 X166.237 Y73.556 E43.14508
G1 X166.796 Y74.395 E43.15773
G1 X167.209 Y75.797 E43.17606
G1 X167.209 Y139.169 E43.97076
G1 X166.909 Y140.448 E43.98724
G1 X166.053 Y141.742 E44.0067
G1 X165.167 Y142.386 E44.02043
G1 X163.617 Y142.99 E44.04129
G1 X69.393 Y142.99 E45.2229
G1 X68.192 Y142.636 E45.2386
G1 X68.026 Y142.539 E45.24101
G1 X66.902 Y141.447 E45.26066
G1 X66.342 Y140.607 E45.27332
G1 X65.929 Y139.203 E45.29167
G1 X65.929 Y75.478 E46.09081
G1 X66.31 Y74.186 E46.1077
G1 X67.342 Y73.116 E46.12634
G1 X67.342 Y13.992 E46.86778
G0 F15000 X67.742 Y14.051
G1 F1800 X68.079 Y12.907 E46.88274
G1 X69.137 Y11.811 E46.90184
G1 X69.898 Y11.304 E46.91331
G1 X71.188 Y10.924 E46.93017
G1 X162.175 Y10.924 E48.07118
G1 X163.319 Y11.261 E48.08614
G1 X164.415 Y12.319 E48.10524
G1 X164.922 Y13.08 E48.11671
G1 X165.302 Y14.37 E48.13357
G1 X165.302 Y73.207 E48.87141
G1 X165.926 Y73.811 E48.8823
G1 X166.429 Y74.566 E48.89368
G1 X166.809 Y75.856 E48.91054
G1 X166.809 Y139.125 E49.70396
G1 X166.537 Y140.284 E49.71889
G1 X165.757 Y141.463 E49.73662
G1 X164.976 Y142.031 E49.74873
G1 X163.541 Y142.59 E49.76804
G1 X69.452 Y142.59 E50.94795
G1 X68.305 Y142.252 E50.96294
G1 X67.211 Y141.189 E50.98207
G1 X66.709 Y140.436 E50.99342
G1 X66.329 Y139.144 E51.01031
G1 X66.329 Y75.537 E51.80797
G1 X66.666 Y74.393 E51.82292
G1 X67.742 Y73.278 E51.84235
G1 X67.742 Y14.051 E52.58508
G0 F15000 X68.142 Y14.11
G1 F1800 X68.435 Y13.114 E52.5981
G1 X69.395 Y12.12 E52.61543
G1 X70.069 Y11.671 E52.62559
G1 X71.247 Y11.324 E52.64099
G1 X162.116 Y11.324 E53.78052
G1 X163.112 Y11.617 E53.79354
G1 X164.106 Y12.577 E53.81087
G1 X164.555 Y13.251 E53.82102
G1 X164.902 Y14.429 E53.83642
G1 X164.902 Y73.376 E54.57564
G1 X165.615 Y74.066 E54.58808
G1 X166.062 Y74.737 E54.59819
G1 X166.409 Y75.915 E54.61359
G1 X166.409 Y139.081 E55.40572
G1 X166.165 Y140.12 E55.4191
G1 X165.461 Y141.184 E55.4351
G1 X164.785 Y141.676 E55.44559
G1 X163.465 Y142.19 E55.46335
G1 X69.511 Y142.19 E56.64157
G1 X68.513 Y141.896 E56.65462
G1 X67.52 Y140.931 E56.67198
G1 X67.076 Y140.265 E56.68202
G1 X66.729 Y139.085 E56.69744
G1 X66.729 Y75.596 E57.49362
G1 X67.022 Y74.6 E57.50664
G1 X67.953 Y73.636 E57.52344
G1 X68.142 Y73.507 E57.52631
G1 X68.142 Y14.11 E58.27117
G0 F15000 X68.542 Y14.169
G1 F1800 X68.791 Y13.321 E58.28226
G1 X69.653 Y12.429 E58.29781
G1 X70.24 Y12.038 E58.30666
G1 X71.306 Y11.724 E58.32059
G1 X162.057 Y11.724 E59.45864
G1 X162.905 Y11.973 E59.46973
G1 X163.797 Y12.835 E59.48528
G1 X164.188 Y13.422 E59.49413
G1 X164.502 Y14.488 E59.50806
G1 X164.502 Y73.545 E60.24866
G1 X165.304 Y74.321 E60.26265
G1 X165.695 Y74.908 E60.2715
G1 X166.009 Y75.974 E60.28544
G1 X166.009 Y139.036 E61.07626
G1 X165.792 Y139.958 E61.08813
G1 X165.167 Y140.904 E61.10235
G1 X164.64 Y141.303 E61.11064
G1 X163.389 Y141.79 E61.12748
G1 X69.57 Y141.79 E62.304
G1 X68.721 Y141.54 E62.3151
G1 X67.829 Y140.673 E62.3307
G1 X67.443 Y140.094 E62.33943
G1 X67.129 Y139.026 E62.35339
G1 X67.129 Y75.655 E63.14808
G1 X67.378 Y74.807 E63.15917
G1 X68.241 Y73.914 E63.17474
G1 X68.542 Y73.733 E63.17914
G1 X68.542 Y14.169 E63.9261
G0 F15000 X68.942 Y14.227
G1 F1800 X69.147 Y13.528 E63.93523
G1 X69.941 Y12.707 E63.94956
G1 X70.411 Y12.405 E63.95656
G1 X71.365 Y12.124 E63.96903
G1 X161.999 Y12.124 E65.10562
G1 X162.698 Y12.329 E65.11475
G1 X163.519 Y13.123 E65.12908
G1 X163.821 Y13.593 E65.13608
G1 X164.102 Y14.547 E65.14855
G1 X164.102 Y73.815 E65.8918
G1 X164.327 Y73.933 E65.89498
G1 X165.026 Y74.609 E65.90718
G1 X165.328 Y75.079 E65.91418
G1 X165.609 Y76.033 E65.92665
G1 X165.609 Y138.991 E66.71617
G1 X165.419 Y139.796 E66.72654
G1 X164.833 Y140.684 E66.73988
G1 X164.495 Y140.93 E66.74513
G1 X163.313 Y141.39 E66.76103
G1 X69.629 Y141.39 E67.93586
G1 X68.929 Y141.184 E67.94502
G1 X68.108 Y140.386 E67.95937
G1 X67.827 Y139.981 E67.96555
G1 X67.529 Y138.967 E67.97881
G1 X67.529 Y75.713 E68.77204
G1 X67.734 Y75.014 E68.78117
G1 X68.529 Y74.192 E68.79551
G1 X68.942 Y73.975 E68.80136
G1 X68.942 Y14.227 E69.55062
G0 F15000 X69.342 Y14.227
G1 F1800 X69.503 Y13.736 E69.5571
G1 X70.229 Y12.985 E69.5702
G1 X70.524 Y12.789 E69.57465
G1 X71.424 Y12.524 E69.58641
G1 X161.999 Y12.524 E70.72225
G1 X162.49 Y12.685 E70.72873
G1 X163.241 Y13.411 E70.74183
G1 X163.437 Y13.706 E70.74628
G1 X163.702 Y14.606 E70.75804
G1 X163.702 Y74.093 E71.50403
G1 X164.049 Y74.221 E71.50867
G1 X164.748 Y74.897 E71.52086
G1 X164.944 Y75.192 E71.5253
G1 X165.209 Y76.092 E71.53707
G1 X165.209 Y138.945 E72.32527
G1 X165.046 Y139.634 E72.33415
G1 X164.539 Y140.404 E72.34571
G1 X164.35 Y140.557 E72.34876
G1 X163.237 Y140.99 E72.36374
G1 X69.629 Y140.99 E73.53761
G1 X69.138 Y140.829 E73.54409
G1 X68.387 Y140.099 E73.55723
G1 X68.193 Y139.806 E73.56163
G1 X67.929 Y138.908 E73.57337
G1 X67.929 Y75.713 E74.36586
G1 X68.09 Y75.222 E74.37234
G1 X68.817 Y74.47 E74.38546
G1 X69.342 Y74.232 E74.39269
G1 X69.342 Y14.227 E75.14517
G0 F15000 X69.742 Y14.227
G1 F1800 X69.742 Y74.51 E75.90114
G1 X69.105 Y74.748 E75.90967
G1 X68.378 Y75.5 E75.92279
G1 X68.329 Y75.713 E75.92553
G1 X68.329 Y138.849 E76.71728
G1 X68.561 Y139.638 E76.72759
G1 X68.666 Y139.812 E76.73014
G1 X69.417 Y140.542 E76.74327
G1 X69.629 Y140.59 E76.746
G1 X163.161 Y140.59 E77.91892
G1 X164.205 Y140.184 E77.93297
G1 X164.674 Y139.472 E77.94366
G1 X164.809 Y138.945 E77.95049
G1 X164.809 Y76.151 E78.73795
G1 X164.576 Y75.36 E78.74829
G1 X164.47 Y75.185 E78.75085
G1 X163.771 Y74.509 E78.76305
G1 X163.302 Y74.434 E78.769
G1 X163.302 Y14.665 E79.51853
G1 X163.069 Y13.874 E79.52887
G1 X162.963 Y13.699 E79.53143
G1 X162.212 Y12.973 E79.54453
G1 X161.999 Y12.924 E79.54727
G1 X71.483 Y12.924 E80.68238
G1 X70.692 Y13.157 E80.69272
G1 X70.517 Y13.263 E80.69529
G1 X69.791 Y14.014 E80.70838
G1 X69.742 Y14.227 E80.71113
G0 F15000 X70.142 Y14.227
G1 F1800 X70.805 Y13.541 E80.72309
G1 X71.542 Y13.324 E80.73272
G1 X161.999 Y13.324 E81.86709
G1 X162.685 Y13.987 E81.87905
G1 X162.902 Y14.724 E81.88869
G1 X162.902 Y74.81 E82.64219
G1 X163.547 Y74.85 E82.65029
G1 X164.192 Y75.473 E82.66154
G1 X164.409 Y76.21 E82.67117
G1 X164.409 Y138.945 E83.45789
G1 X164.34 Y139.252 E83.46184
G1 X163.941 Y139.857 E83.47093
G1 X163.085 Y140.19 E83.48244
G1 X69.629 Y140.19 E84.65442
G1 X68.945 Y139.525 E84.66638
G1 X68.729 Y138.79 E84.67599
G1 X68.729 Y75.713 E85.467
G1 X69.393 Y75.026 E85.47898
G1 X70.142 Y74.812 E85.48875
G1 X70.142 Y14.227 E86.2485
G0 F15000 X70.542 Y14.359
G1 F1800 X71.02 Y13.894 E86.25687
G1 X71.542 Y13.724 E86.26375
G1 X161.867 Y13.724 E87.39646
G1 X162.332 Y14.202 E87.40482
G1 X162.502 Y14.724 E87.41171
G1 X162.502 Y74.839 E88.16557
G1 X162.348 Y75.21 E88.17061
G1 X163.374 Y75.21 E88.18348
G1 X163.839 Y75.688 E88.19184
G1 X164.009 Y76.21 E88.19872
G1 X164.009 Y138.945 E88.98544
G1 X163.954 Y139.147 E88.98807
G1 X163.682 Y139.533 E88.99399
G1 X163.009 Y139.79 E89.00302
G1 X69.762 Y139.79 E90.17238
G1 X69.299 Y139.312 E90.18072
G1 X69.129 Y138.79 E90.18761
G1 X69.129 Y75.845 E90.97696
G1 X69.607 Y75.38 E90.98532
G1 X70.129 Y75.21 E90.99221
G1 X70.715 Y75.21 E90.99956
G1 X70.542 Y74.684 E91.0065
G1 X70.542 Y14.359 E91.763
G0 F15000 X70.942 Y14.493
G1 F1800 X71.162 Y14.268 E91.76694
G1 X71.542 Y14.124 E91.77204
G1 X161.733 Y14.124 E92.90307
G1 X161.958 Y14.344 E92.90701
G1 X162.102 Y14.724 E92.91211
G1 X162.102 Y74.839 E93.66597
G1 X161.952 Y75.095 E93.6697
G1 X161.502 Y75.284 E93.67582
G1 X71.31 Y75.284 E94.80686
G1 X71.086 Y75.064 E94.81079
G1 X70.942 Y74.684 E94.81589
G1 X70.942 Y14.493 E95.57071
G0 F15000 X71.342 Y14.625
G1 F1800 X71.542 Y14.524 E95.57352
G1 X161.601 Y14.524 E96.70289
G1 X161.702 Y14.724 E96.7057
G1 X161.702 Y74.783 E97.45886
G1 X161.502 Y74.884 E97.46167
G1 X71.443 Y74.884 E98.59105
G1 X71.342 Y74.684 E98.59386
G1 X71.342 Y14.625 E99.34702
G1 F1500 E92.84702
G0 F15000 X68.502 Y14.625
G0 X68.514 Y73.182
G0 X70.129 Y75.61
G1 F1500 E99.34702
G1 F1800 X163.24 Y75.61 E100.51466
G1 X163.465 Y75.83 E100.51861
