;START_OF_HEADER
;HEADER_VERSION:0.1
;FLAVOR:Griffin
;GENERATOR.NAME:Cura_SteamEngine
;GENERATOR.VERSION:5.3.1
;GENERATOR.BUILD_DATE:2023-04-19
;TARGET_MACHINE.NAME:Ultimaker 3 Extended
;EXTRUDER_TRAIN.0.INITIAL_TEMPERATURE:205
;EXTRUDER_TRAIN.0.MATERIAL.VOLUME_USED:12069
;EXTRUDER_TRAIN.0.MATERIAL.GUID:506c9f0d-e3aa-4bd4-b2d2-23e2425b1aa9
;EXTRUDER_TRAIN.0.NOZZLE.DIAMETER:0.4
;EXTRUDER_TRAIN.0.NOZZLE.NAME:AA 0.4
;BUILD_PLATE.INITIAL_TEMPERATURE:60
;PRINT.TIME:4340
;PRINT.GROUPS:1
;PRINT.SIZE.MIN.X:9
;PRINT.SIZE.MIN.Y:6
;PRINT.SIZE.MIN.Z:0.2
;PRINT.SIZE.MAX.X:153.48
;PRINT.SIZE.MAX.Y:159.48
;PRINT.SIZE.MAX.Z:20
;SLICE_UUID:717d44e1-036a-4a50-92d2-abe52d528370
;END_OF_HEADER
;Generated with Cura_SteamEngine 5.3.1
T0
M82 ;absolute extrusion mode

G92 E0
M109 S205
G0 F15000 X9 Y6 Z2
G280
G1 F1500 E-6.5
;LAYER_COUNT:100
;LAYER:0
M106 S255
M204 S1000
M205 X20 Y20
G1 F600 Z2.2
G0 F15000 X80.484 Y58.758 Z2.2
;TYPE:SKIRT
G1 F600 Z0.2
G1 F1500 E0
G1 F1800 X82.051 Y57.135 E0.02829
G1 X83.508 Y56.164 E0.05025
G1 X85.694 Y55.52 E0.07883
G1 X147.625 Y55.52 E0.85546
G1 X149.369 Y56.035 E0.87827
G1 X150.242 Y56.484 E0.89058
G1 X151.865 Y58.051 E0.91887
G1 X152.836 Y59.508 E0.94083
G1 X153.48 Y61.694 E0.96941
G1 X153.48 Y153.197 E2.11689
G1 X152.981 Y155.291 E2.14388
G1 X151.404 Y157.608 E2.17903
G1 X150.617 Y158.303 E2.1922
G1 X147.614 Y159.48 E2.23264
G1 X85.371 Y159.48 E3.01319
G1 X83.62 Y158.963 E3.03609
G1 X82.647 Y158.415 E3.05009
G1 X81.13 Y156.943 E3.0766
G1 X80.164 Y155.494 E3.09844
G1 X79.52 Y153.306 E3.12704
G1 X79.52 Y61.375 E4.27989
G1 X80.035 Y59.631 E4.3027
G1 X80.484 Y58.758 E4.31501
G0 F15000 X80.813 Y58.994
G1 F1800 X82.309 Y57.444 E4.34202
G1 X83.679 Y56.531 E4.36267
G1 X85.753 Y55.92 E4.38978
G1 X147.566 Y55.92 E5.16494
G1 X149.219 Y56.408 E5.18655
G1 X150.006 Y56.813 E5.19765
G1 X151.556 Y58.309 E5.22467
G1 X152.469 Y59.679 E5.24531
G1 X153.08 Y61.753 E5.27243
G1 X153.08 Y153.15 E6.41858
G1 X152.609 Y155.126 E6.44405
G1 X151.101 Y157.341 E6.47765
G1 X150.404 Y157.957 E6.48932
G1 X147.539 Y159.08 E6.52791
G1 X85.43 Y159.08 E7.30678
G1 X83.773 Y158.591 E7.32844
G1 X82.891 Y158.094 E7.34114
G1 X81.439 Y156.685 E7.36651
G1 X80.531 Y155.323 E7.38704
G1 X79.92 Y153.247 E7.41418
G1 X79.92 Y61.434 E8.56555
G1 X80.408 Y59.781 E8.58716
G1 X80.813 Y58.994 E8.59826
G0 F15000 X81.142 Y59.23
G1 F1800 X82.567 Y57.753 E8.624
G1 X83.85 Y56.898 E8.64333
G1 X85.812 Y56.32 E8.66898
G1 X147.507 Y56.32 E9.44266
G1 X149.069 Y56.781 E9.46308
G1 X149.77 Y57.142 E9.47297
G1 X151.247 Y58.567 E9.49871
G1 X152.102 Y59.85 E9.51804
G1 X152.68 Y61.812 E9.54369
G1 X152.68 Y153.103 E10.68852
G1 X152.237 Y154.961 E10.71247
G1 X150.799 Y157.074 E10.74452
G1 X150.191 Y157.611 E10.75469
G1 X147.464 Y158.68 E10.79143
G1 X85.489 Y158.68 E11.56861
G1 X83.93 Y158.22 E11.589
G1 X83.133 Y157.771 E11.60047
G1 X81.748 Y156.427 E11.62467
G1 X80.898 Y155.152 E11.64389
G1 X80.32 Y153.188 E11.66956
G1 X80.32 Y61.493 E12.81945
G1 X80.781 Y59.931 E12.83987
G1 X81.142 Y59.23 E12.84976
G0 F15000 X81.471 Y59.465
G1 F1800 X82.825 Y58.062 E12.87421
G1 X84.021 Y57.265 E12.89224
G1 X85.871 Y56.72 E12.91642
G1 X147.448 Y56.72 E13.68862
G1 X148.956 Y57.165 E13.70834
G1 X149.535 Y57.471 E13.71655
G1 X150.938 Y58.825 E13.741
G1 X151.735 Y60.021 E13.75903
G1 X152.28 Y61.871 E13.78321
G1 X152.28 Y153.056 E14.9267
G1 X151.865 Y154.796 E14.94914
G1 X150.468 Y156.849 E14.98028
G1 X149.978 Y157.265 E14.98834
G1 X147.389 Y158.28 E15.02321
G1 X85.548 Y158.28 E15.79872
G1 X84.087 Y157.849 E15.81782
G1 X83.375 Y157.448 E15.82807
G1 X82.057 Y156.169 E15.8511
G1 X81.265 Y154.981 E15.86901
G1 X80.72 Y153.129 E15.89322
G1 X80.72 Y61.552 E17.04162
G1 X81.165 Y60.044 E17.06134
G1 X81.471 Y59.465 E17.06955
G0 F15000 X81.799 Y59.702
G1 F1800 X81.549 Y60.157 E17.07606
G1 X81.12 Y61.611 E17.09508
G1 X81.12 Y153.07 E18.24201
G1 X81.632 Y154.81 E18.26475
G1 X82.366 Y155.911 E18.28134
G1 X83.616 Y157.125 E18.3032
G1 X84.244 Y157.478 E18.31223
G1 X85.607 Y157.88 E18.33005
G1 X147.314 Y157.88 E19.10388
G1 X149.832 Y156.893 E19.1378
G1 X150.137 Y156.624 E19.1429
G1 X151.493 Y154.631 E19.17312
G1 X151.88 Y153.009 E19.19404
G1 X151.88 Y61.93 E20.3362
G1 X151.368 Y60.192 E20.35892
G1 X150.629 Y59.083 E20.37563
G1 X149.298 Y57.799 E20.39883
G1 X148.843 Y57.549 E20.40534
G1 X147.389 Y57.12 E20.42435
G1 X85.93 Y57.12 E21.19507
G1 X84.192 Y57.632 E21.21779
G1 X83.083 Y58.371 E21.2345
G1 X81.799 Y59.702 E21.25769
G0 F15000 X82.087 Y59.98
G1 F1800 X81.933 Y60.27 E21.26181
G1 X81.52 Y61.67 E21.28011
G1 X81.52 Y153.011 E22.42556
G1 X81.999 Y154.639 E22.44684
G1 X82.675 Y155.653 E22.46213
G1 X83.859 Y156.803 E22.48283
G1 X84.357 Y157.094 E22.49006
G1 X85.666 Y157.48 E22.50717
G1 X147.239 Y157.48 E23.27932
G1 X149.621 Y156.546 E23.31141
G1 X149.806 Y156.399 E23.31437
G1 X151.121 Y154.466 E23.34369
G1 X151.48 Y152.962 E23.36308
G1 X151.48 Y61.989 E24.50391
G1 X151.001 Y60.363 E24.52517
G1 X150.32 Y59.341 E24.54057
G1 X149.02 Y58.087 E24.56322
G1 X148.73 Y57.933 E24.56734
G1 X147.33 Y57.52 E24.58564
G1 X85.989 Y57.52 E25.35488
G1 X84.363 Y57.999 E25.37614
G1 X83.341 Y58.68 E25.39154
G1 X82.087 Y59.98 E25.41419
G0 F15000 X82.413 Y60.218
G1 F1800 X83.599 Y58.989 E25.43561
G1 X84.534 Y58.366 E25.4497
G1 X86.048 Y57.92 E25.46949
G1 X147.271 Y57.92 E26.23725
G1 X148.617 Y58.317 E26.25485
G1 X148.782 Y58.413 E26.25724
G1 X150.011 Y59.599 E26.27866
G1 X150.634 Y60.534 E26.29275
G1 X151.08 Y62.048 E26.31254
G1 X151.08 Y152.915 E27.45205
G1 X150.749 Y154.301 E27.46992
G1 X149.475 Y156.174 E27.49833
G1 X147.164 Y157.08 E27.52946
G1 X85.725 Y157.08 E28.29992
G1 X84.47 Y156.71 E28.31633
G1 X84.138 Y156.516 E28.32115
G1 X82.984 Y155.395 E28.34133
G1 X82.366 Y154.468 E28.3553
G1 X81.92 Y152.952 E28.37512
G1 X81.92 Y61.729 E29.51909
G1 X82.317 Y60.383 E29.53669
G1 X82.413 Y60.218 E29.53908
G0 F15000 X82.701 Y60.496
G1 F1800 X83.857 Y59.298 E29.55996
G1 X84.705 Y58.733 E29.57273
G1 X86.107 Y58.32 E29.59106
G1 X147.212 Y58.32 E30.35734
G1 X148.504 Y58.701 E30.37423
G1 X149.702 Y59.857 E30.39511
G1 X150.267 Y60.705 E30.40789
G1 X150.68 Y62.107 E30.42622
G1 X150.68 Y152.868 E31.5644
G1 X150.377 Y154.138 E31.58077
G1 X149.216 Y155.851 E31.60672
G1 X147.088 Y156.68 E31.63536
G1 X85.784 Y156.68 E32.40413
G1 X84.583 Y156.326 E32.41984
G1 X84.417 Y156.229 E32.42225
G1 X83.293 Y155.137 E32.4419
G1 X82.733 Y154.297 E32.45456
G1 X82.32 Y152.893 E32.47291
G1 X82.32 Y61.788 E33.6154
G1 X82.701 Y60.496 E33.63229
G0 F15000 X83.057 Y60.703
G1 F1800 X84.115 Y59.607 E33.6514
G1 X84.876 Y59.1 E33.66286
G1 X86.166 Y58.72 E33.67973
G1 X147.153 Y58.72 E34.44453
G1 X148.297 Y59.057 E34.45948
G1 X149.393 Y60.115 E34.47859
G1 X149.9 Y60.876 E34.49005
G1 X150.28 Y62.166 E34.50692
G1 X150.28 Y152.821 E35.64377
G1 X150.005 Y153.975 E35.65864
G1 X148.961 Y155.521 E35.68204
G1 X147.012 Y156.28 E35.70827
G1 X85.843 Y156.28 E36.47535
G1 X84.696 Y155.942 E36.49034
G1 X83.602 Y154.879 E36.50947
G1 X83.1 Y154.126 E36.52082
G1 X82.72 Y152.834 E36.53771
G1 X82.72 Y61.847 E37.67872
G1 X83.057 Y60.703 E37.69368
G0 F15000 X83.413 Y60.91
G1 F1800 X84.373 Y59.916 E37.71101
G1 X85.047 Y59.467 E37.72116
G1 X86.225 Y59.12 E37.73656
G1 X147.094 Y59.12 E38.49988
G1 X148.09 Y59.413 E38.5129
G1 X149.084 Y60.373 E38.53023
G1 X149.533 Y61.047 E38.54039
G1 X149.88 Y62.225 E38.55579
G1 X149.88 Y152.774 E39.6913
G1 X149.633 Y153.812 E39.70468
G1 X148.706 Y155.191 E39.72552
G1 X146.936 Y155.88 E39.74934
G1 X85.902 Y155.88 E40.51473
G1 X84.904 Y155.586 E40.52778
G1 X83.911 Y154.621 E40.54514
G1 X83.467 Y153.955 E40.55518
G1 X83.12 Y152.775 E40.5706
G1 X83.12 Y61.906 E41.71013
G1 X83.413 Y60.91 E41.72315
G0 F15000 X83.769 Y61.117
G1 F1800 X84.631 Y60.225 E41.73871
G1 X85.218 Y59.834 E41.74755
G1 X86.284 Y59.52 E41.76149
G1 X147.035 Y59.52 E42.52333
G1 X147.883 Y59.769 E42.53441
G1 X148.775 Y60.631 E42.54997
G1 X149.166 Y61.218 E42.55881
G1 X149.48 Y62.284 E42.57275
G1 X149.48 Y152.727 E43.70694
G1 X149.261 Y153.648 E43.71881
G1 X148.451 Y154.86 E43.73709
G1 X146.86 Y155.48 E43.7585
G1 X85.961 Y155.48 E44.5222
G1 X85.112 Y155.23 E44.5333
G1 X84.22 Y154.363 E44.5489
G1 X83.834 Y153.784 E44.55762
G1 X83.52 Y152.716 E44.57158
G1 X83.52 Y61.965 E45.70964
G1 X83.769 Y61.117 E45.72072
G0 F15000 X84.125 Y61.324
G1 F1800 X84.919 Y60.503 E45.73504
G1 X85.389 Y60.201 E45.74205
G1 X86.343 Y59.92 E45.75452
G1 X146.977 Y59.92 E46.51489
G1 X147.676 Y60.125 E46.52403
G1 X148.497 Y60.919 E46.53835
G1 X148.799 Y61.389 E46.54536
G1 X149.08 Y62.343 E46.55783
G1 X149.08 Y152.681 E47.6907
G1 X148.889 Y153.486 E47.70107
G1 X148.196 Y154.53 E47.71679
G1 X146.784 Y155.08 E47.73579
G1 X86.02 Y155.08 E48.49779
G1 X85.32 Y154.874 E48.50695
G1 X84.499 Y154.076 E48.5213
G1 X84.218 Y153.671 E48.52748
G1 X83.92 Y152.657 E48.54074
G1 X83.92 Y62.023 E49.67732
G1 X84.125 Y61.324 E49.68646
G0 F15000 X84.481 Y61.532
G1 F1800 X85.207 Y60.781 E49.69956
G1 X85.502 Y60.585 E49.704
G1 X86.402 Y60.32 E49.71576
G1 X146.977 Y60.32 E50.4754
G1 X147.468 Y60.481 E50.48188
G1 X148.219 Y61.207 E50.49497
G1 X148.415 Y61.502 E50.49942
G1 X148.68 Y62.402 E50.51118
G1 X148.68 Y152.635 E51.64274
G1 X148.517 Y153.324 E51.65162
G1 X147.94 Y154.2 E51.66477
G1 X146.708 Y154.68 E51.68135
G1 X86.02 Y154.68 E52.4424
G1 X85.529 Y154.519 E52.44888
G1 X84.778 Y153.789 E52.46201
G1 X84.584 Y153.496 E52.46642
G1 X84.32 Y152.598 E52.47816
G1 X84.32 Y62.023 E53.614
G1 X84.481 Y61.532 E53.62048
G0 F15000 X84.769 Y61.81
G1 F1800 X85.495 Y61.059 E53.63358
G1 X85.67 Y60.953 E53.63615
G1 X86.461 Y60.72 E53.64649
G1 X146.977 Y60.72 E54.40538
G1 X147.19 Y60.769 E54.40812
G1 X147.941 Y61.495 E54.42122
G1 X148.047 Y61.67 E54.42379
G1 X148.28 Y62.461 E54.43413
G1 X148.28 Y152.635 E55.56494
G1 X148.145 Y153.162 E55.57177
G1 X147.676 Y153.874 E55.58246
G1 X146.632 Y154.28 E55.59651
G1 X86.02 Y154.28 E56.3566
G1 X85.808 Y154.232 E56.35933
G1 X85.057 Y153.502 E56.37246
G1 X84.952 Y153.328 E56.37501
G1 X84.72 Y152.539 E56.38532
G1 X84.72 Y62.023 E57.52043
G1 X84.769 Y61.81 E57.52317
G0 F15000 X85.12 Y62.023
G1 F1800 X85.783 Y61.337 E57.53513
G1 X86.52 Y61.12 E57.54477
G1 X146.977 Y61.12 E58.30292
G1 X147.663 Y61.783 E58.31488
G1 X147.88 Y62.52 E58.32452
G1 X147.88 Y152.635 E59.45459
G1 X147.811 Y152.942 E59.45854
G1 X147.412 Y153.547 E59.46763
G1 X146.556 Y153.88 E59.47915
G1 X86.02 Y153.88 E60.23829
G1 X85.336 Y153.215 E60.25025
G1 X85.12 Y152.48 E60.25986
G1 X85.12 Y62.023 E61.39423
G0 F15000 X85.52 Y62.155
G1 F1800 X85.998 Y61.69 E61.40259
G1 X86.52 Y61.52 E61.40947
G1 X146.845 Y61.52 E62.16597
G1 X147.31 Y61.998 E62.17433
G1 X147.48 Y62.52 E62.18122
G1 X147.48 Y152.635 E63.31129
G1 X147.425 Y152.837 E63.31392
G1 X147.153 Y153.223 E63.31984
G1 X146.48 Y153.48 E63.32887
G1 X86.153 Y153.48 E64.0854
G1 X85.69 Y153.002 E64.09374
G1 X85.52 Y152.48 E64.10063
G1 X85.52 Y62.155 E65.23334
G0 F15000 X85.92 Y62.289
G1 F1800 X86.14 Y62.064 E65.23728
G1 X86.52 Y61.92 E65.24238
G1 X146.711 Y61.92 E65.9972
G1 X146.936 Y62.14 E66.00114
G1 X147.08 Y62.52 E66.00624
G1 X147.08 Y152.635 E67.13631
G1 X146.93 Y152.891 E67.14003
G1 X146.48 Y153.08 E67.14615
G1 X86.288 Y153.08 E67.90098
G1 X86.064 Y152.86 E67.90492
G1 X85.92 Y152.48 E67.91002
G1 X85.92 Y62.289 E69.04105
G0 F15000 X86.32 Y62.421
G1 F1800 X86.52 Y62.32 E69.04386
G1 X146.579 Y62.32 E69.79702
G1 X146.68 Y62.52 E69.79983
G1 X146.68 Y152.579 E70.9292
G1 X146.48 Y152.68 E70.93201
G1 X86.421 Y152.68 E71.68517
G1 X86.32 Y152.48 E71.68798
G1 X86.32 Y62.421 E72.81736
M204 S429
G1 F1500 E66.31736
;MESH:Inside.obj
G0 F15000 X87.24 Y63.24
G0 X146.28 Y152.28
;TYPE:WALL-OUTER
G1 F1500 E72.81736
G1 F1800 X146.28 Y62.72 E74.05278
G1 X86.72 Y62.72 E74.87438
G1 X86.72 Y152.28 E76.10981
G1 X146.28 Y152.28 E76.9314
M204 S1000
G0 F15000 X146.28 Y152.08
G0 X145.88 Y151.88
;TYPE:WALL-INNER
G1 F1800 X145.88 Y63.12 E77.98883
G1 X87.12 Y63.12 E78.68886
G1 X87.12 Y151.88 E79.74629
G1 X145.88 Y151.88 E80.44632
G0 F15000 X145.56 Y151.56
;TYPE:SKIN
G1 F1800 X145.56 Y63.44 E81.39114
G1 X87.44 Y63.44 E82.0143
G1 X87.44 Y151.56 E82.95913
G1 X145.56 Y151.56 E83.58229
G1 F1500 E77.08229
G0 F15000 X145.86 Y151.56
G0 X88.002 Y151.86
G0 X88.002 Y151.359
G1 F1500 E83.58229
G1 F1800 X87.639 Y150.996 E83.5878
G0 F15000 X87.639 Y150.43
G1 F1800 X88.567 Y151.359 E83.60188
G0 F15000 X89.133 Y151.359
G1 F1800 X87.639 Y149.864 E83.62454
G0 F15000 X87.639 Y149.299
G1 F1800 X89.699 Y151.359 E83.65577
G0 F15000 X90.265 Y151.359
G1 F1800 X87.639 Y148.733 E83.69559
G0 F15000 X87.639 Y148.167
G1 F1800 X90.83 Y151.359 E83.74399
G0 F15000 X91.396 Y151.359
G1 F1800 X87.639 Y147.602 E83.80095
G0 F15000 X87.639 Y147.036
G1 F1800 X91.962 Y151.359 E83.8665
G0 F15000 X92.527 Y151.359
G1 F1800 X87.639 Y146.47 E83.94063
G0 F15000 X87.639 Y145.905
G1 F1800 X93.093 Y151.359 E84.02333
G0 F15000 X93.659 Y151.359
G1 F1800 X87.639 Y145.339 E84.11461
G0 F15000 X87.639 Y144.773
G1 F1800 X94.224 Y151.359 E84.21447
G0 F15000 X94.79 Y151.359
G1 F1800 X87.639 Y144.208 E84.3229
G0 F15000 X87.639 Y143.642
G1 F1800 X95.356 Y151.359 E84.43992
G0 F15000 X95.921 Y151.359
G1 F1800 X87.639 Y143.076 E84.56551
G0 F15000 X87.639 Y142.511
G1 F1800 X96.487 Y151.359 E84.69967
G0 F15000 X97.053 Y151.359
G1 F1800 X87.639 Y141.945 E84.84242
G0 F15000 X87.639 Y141.379
G1 F1800 X97.618 Y151.359 E84.99374
G0 F15000 X98.184 Y151.359
G1 F1800 X87.639 Y140.813 E85.15364
G0 F15000 X87.639 Y140.248
G1 F1800 X98.75 Y151.359 E85.32212
G0 F15000 X99.315 Y151.359
G1 F1800 X87.639 Y139.682 E85.49917
G0 F15000 X87.639 Y139.116
G1 F1800 X99.881 Y151.359 E85.68481
G0 F15000 X100.447 Y151.359
G1 F1800 X87.639 Y138.551 E85.87902
G0 F15000 X87.639 Y137.985
G1 F1800 X101.013 Y151.359 E86.08181
G0 F15000 X101.578 Y151.359
G1 F1800 X87.639 Y137.419 E86.29318
G0 F15000 X87.639 Y136.854
G1 F1800 X102.144 Y151.359 E86.51312
G0 F15000 X102.71 Y151.359
G1 F1800 X87.639 Y136.288 E86.74165
G0 F15000 X87.639 Y135.722
G1 F1800 X103.275 Y151.359 E86.97875
G0 F15000 X103.841 Y151.359
G1 F1800 X87.639 Y135.157 E87.22442
G0 F15000 X87.639 Y134.591
G1 F1800 X104.407 Y151.359 E87.47868
G0 F15000 X104.972 Y151.359
G1 F1800 X87.639 Y134.025 E87.74151
G0 F15000 X87.639 Y133.46
G1 F1800 X105.538 Y151.359 E88.01292
G0 F15000 X106.104 Y151.359
G1 F1800 X87.639 Y132.894 E88.29291
G0 F15000 X87.639 Y132.328
G1 F1800 X106.669 Y151.359 E88.58147
G0 F15000 X107.235 Y151.359
G1 F1800 X87.639 Y131.762 E88.87862
G0 F15000 X87.639 Y131.197
G1 F1800 X107.801 Y151.359 E89.18434
G0 F15000 X108.366 Y151.359
G1 F1800 X87.639 Y130.631 E89.49863
G0 F15000 X87.639 Y130.065
G1 F1800 X108.932 Y151.359 E89.82151
G0 F15000 X109.498 Y151.359
G1 F1800 X87.639 Y129.5 E90.15296
G0 F15000 X87.639 Y128.934
G1 F1800 X110.063 Y151.359 E90.49299
G0 F15000 X110.629 Y151.359
G1 F1800 X87.639 Y128.368 E90.8416
G0 F15000 X87.639 Y127.803
G1 F1800 X111.195 Y151.359 E91.19879
G0 F15000 X111.761 Y151.359
G1 F1800 X87.639 Y127.237 E91.56455
G0 F15000 X87.639 Y126.671
G1 F1800 X112.326 Y151.359 E91.9389
G0 F15000 X112.892 Y151.359
G1 F1800 X87.639 Y126.106 E92.32181
G0 F15000 X87.639 Y125.54
G1 F1800 X113.458 Y151.359 E92.71331
G0 F15000 X114.023 Y151.359
G1 F1800 X87.639 Y124.974 E93.11339
G0 F15000 X87.639 Y124.409
G1 F1800 X114.589 Y151.359 E93.52203
G0 F15000 X115.155 Y151.359
G1 F1800 X87.639 Y123.843 E93.93927
G0 F15000 X87.639 Y123.277
G1 F1800 X115.72 Y151.359 E94.36507
G0 F15000 X116.286 Y151.359
G1 F1800 X87.639 Y122.712 E94.79945
G0 F15000 X87.639 Y122.146
G1 F1800 X116.852 Y151.359 E95.24242
G0 F15000 X117.417 Y151.359
G1 F1800 X87.639 Y121.58 E95.69395
G0 F15000 X87.639 Y121.014
G1 F1800 X117.983 Y151.359 E96.15407
