;START_OF_HEADER
;HEADER_VERSION:0.1
;FLAVOR:Griffin
;GENERATOR.NAME:Cura_SteamEngine
;GENERATOR.VERSION:5.3.1
;GENERATOR.BUILD_DATE:2023-04-19
;TARGET_MACHINE.NAME:Ultimaker 3 Extended
;EXTRUDER_TRAIN.0.INITIAL_TEMPERATURE:205
;EXTRUDER_TRAIN.0.MATERIAL.VOLUME_USED:13423
;EXTRUDER_TRAIN.0.MATERIAL.GUID:506c9f0d-e3aa-4bd4-b2d2-23e2425b1aa9
;EXTRUDER_TRAIN.0.NOZZLE.DIAMETER:0.4
;EXTRUDER_TRAIN.0.NOZZLE.NAME:AA 0.4
;BUILD_PLATE.INITIAL_TEMPERATURE:60
;PRINT.TIME:4858
;PRINT.GROUPS:1
;PRINT.SIZE.MIN.X:9
;PRINT.SIZE.MIN.Y:6
;PRINT.SIZE.MIN.Z:0.2
;PRINT.SIZE.MAX.X:170.009
;PRINT.SIZE.MAX.Y:145.79
;PRINT.SIZE.MAX.Z:22.4
;SLICE_UUID:aee97303-5e8a-4eff-8ed8-75266764c67b
;END_OF_HEADER
;Generated with Cura_SteamEngine 5.3.1
T0
M82 ;absolute extrusion mode

G92 E0
M109 S205
G0 F15000 X9 Y6 Z2
G280
G1 F1500 E-6.5
;LAYER_COUNT:113
;LAYER:0
M106 S255
M204 S1000
M205 X20 Y20
G1 F600 Z2.2
G0 F15000 X65.66 Y70.825 Z2.2
;TYPE:SKIRT
G1 F600 Z0.2
G1 F1500 E0
G1 F1800 X67.117 Y69.854 E0.02196
G1 X69.303 Y69.21 E0.05054
G1 X164.154 Y69.21 E1.24
G1 X165.898 Y69.725 E1.26281
G1 X166.771 Y70.174 E1.27512
G1 X168.394 Y71.741 E1.30341
G1 X169.365 Y73.198 E1.32537
G1 X170.009 Y75.384 E1.35394
G1 X170.009 Y139.507 E2.15807
G1 X169.51 Y141.601 E2.18506
G1 X167.933 Y143.918 E2.22021
G1 X167.146 Y144.613 E2.23338
G1 X164.143 Y145.79 E2.27383
G1 X68.98 Y145.79 E3.46721
G1 X67.229 Y145.273 E3.4901
G1 X66.256 Y144.725 E3.50411
G1 X64.739 Y143.253 E3.53061
G1 X63.773 Y141.804 E3.55245
G1 X63.129 Y139.616 E3.58105
G1 X63.129 Y75.065 E4.39055
G1 X63.644 Y73.321 E4.41335
G1 X64.093 Y72.448 E4.42566
G1 X65.66 Y70.825 E4.45395
G0 F15000 X65.918 Y71.134
G1 F1800 X67.288 Y70.221 E4.4746
G1 X69.362 Y69.61 E4.50171
G1 X164.095 Y69.61 E5.6897
G1 X165.748 Y70.098 E5.71131
G1 X166.535 Y70.503 E5.72241
G1 X168.085 Y71.999 E5.74943
G1 X168.998 Y73.369 E5.77007
G1 X169.609 Y75.443 E5.79719
G1 X169.609 Y139.46 E6.59998
G1 X169.138 Y141.436 E6.62546
G1 X167.63 Y143.651 E6.65906
G1 X166.933 Y144.267 E6.67073
G1 X164.068 Y145.39 E6.70932
G1 X69.039 Y145.39 E7.90102
G1 X67.382 Y144.901 E7.92268
G1 X66.5 Y144.404 E7.93538
G1 X65.048 Y142.995 E7.96075
G1 X64.14 Y141.633 E7.98128
G1 X63.529 Y139.557 E8.00841
G1 X63.529 Y75.124 E8.81643
G1 X64.017 Y73.471 E8.83804
G1 X64.422 Y72.684 E8.84914
G1 X65.918 Y71.134 E8.87616
G0 F15000 X66.176 Y71.443
G1 F1800 X67.459 Y70.588 E8.89549
G1 X69.421 Y70.01 E8.92114
G1 X164.036 Y70.01 E10.10765
G1 X165.598 Y70.471 E10.12807
G1 X166.299 Y70.832 E10.13796
G1 X167.776 Y72.257 E10.1637
G1 X168.631 Y73.54 E10.18303
G1 X169.209 Y75.502 E10.20868
G1 X169.209 Y139.413 E11.01015
G1 X168.766 Y141.271 E11.0341
G1 X167.328 Y143.384 E11.06615
G1 X166.72 Y143.921 E11.07632
G1 X163.993 Y144.99 E11.11306
G1 X69.098 Y144.99 E12.30307
G1 X67.539 Y144.53 E12.32346
G1 X66.742 Y144.081 E12.33493
G1 X65.357 Y142.737 E12.35913
G1 X64.507 Y141.462 E12.37835
G1 X63.929 Y139.498 E12.40402
G1 X63.929 Y75.183 E13.21056
G1 X64.39 Y73.621 E13.23098
G1 X64.751 Y72.92 E13.24087
G1 X66.176 Y71.443 E13.2666
G0 F15000 X66.434 Y71.752
G1 F1800 X67.63 Y70.955 E13.28463
G1 X69.48 Y70.41 E13.30881
G1 X163.977 Y70.41 E14.49384
G1 X165.485 Y70.855 E14.51356
G1 X166.064 Y71.161 E14.52177
G1 X167.467 Y72.515 E14.54622
G1 X168.264 Y73.711 E14.56425
G1 X168.809 Y75.561 E14.58843
G1 X168.809 Y139.366 E15.38857
G1 X168.394 Y141.106 E15.411
G1 X166.997 Y143.159 E15.44214
G1 X166.507 Y143.575 E15.4502
G1 X163.918 Y144.59 E15.48508
G1 X69.157 Y144.59 E16.67341
G1 X67.696 Y144.159 E16.69252
G1 X66.984 Y143.758 E16.70276
G1 X65.666 Y142.479 E16.72579
G1 X64.874 Y141.291 E16.7437
G1 X64.329 Y139.439 E16.76791
G1 X64.329 Y75.242 E17.57296
G1 X64.774 Y73.734 E17.59268
G1 X65.08 Y73.155 E17.60089
G1 X66.434 Y71.752 E17.62534
G0 F15000 X66.692 Y72.061
G1 F1800 X67.801 Y71.322 E17.64206
G1 X69.539 Y70.81 E17.66478
G1 X163.918 Y70.81 E18.84832
G1 X165.372 Y71.239 E18.86734
G1 X165.827 Y71.489 E18.87385
G1 X167.158 Y72.773 E18.89704
G1 X167.897 Y73.882 E18.91375
G1 X168.409 Y75.62 E18.93647
G1 X168.409 Y139.319 E19.73528
G1 X168.022 Y140.941 E19.75619
G1 X166.666 Y142.934 E19.78642
G1 X166.361 Y143.203 E19.79152
G1 X163.843 Y144.19 E19.82544
G1 X69.216 Y144.19 E21.01209
G1 X67.853 Y143.788 E21.02991
G1 X67.225 Y143.435 E21.03895
G1 X65.975 Y142.221 E21.0608
G1 X65.241 Y141.12 E21.07739
G1 X64.729 Y139.38 E21.10014
G1 X64.729 Y75.301 E21.90371
G1 X65.158 Y73.847 E21.92273
G1 X65.408 Y73.392 E21.92924
G1 X66.692 Y72.061 E21.95243
G0 F15000 X66.95 Y72.37
G1 F1800 X65.696 Y73.67 E21.97508
G1 X65.542 Y73.96 E21.9792
G1 X65.129 Y75.36 E21.9975
G1 X65.129 Y139.321 E22.7996
G1 X65.608 Y140.949 E22.82088
G1 X66.284 Y141.963 E22.83616
G1 X67.468 Y143.113 E22.85686
G1 X67.966 Y143.404 E22.86409
G1 X69.275 Y143.79 E22.88121
G1 X163.768 Y143.79 E24.06618
G1 X166.15 Y142.856 E24.09827
G1 X166.335 Y142.709 E24.10123
G1 X167.65 Y140.776 E24.13055
G1 X168.009 Y139.272 E24.14994
G1 X168.009 Y75.679 E24.94742
G1 X167.53 Y74.053 E24.96868
G1 X166.849 Y73.031 E24.98408
G1 X165.549 Y71.777 E25.00673
G1 X165.259 Y71.623 E25.01085
G1 X163.859 Y71.21 E25.02915
G1 X69.598 Y71.21 E26.21122
G1 X67.972 Y71.689 E26.23248
G1 X66.95 Y72.37 E26.24788
G0 F15000 X67.208 Y72.679
G1 F1800 X68.143 Y72.056 E26.26197
G1 X69.657 Y71.61 E26.28176
G1 X163.8 Y71.61 E27.46235
G1 X165.146 Y72.007 E27.47995
G1 X165.311 Y72.103 E27.48234
G1 X166.54 Y73.289 E27.50376
G1 X167.163 Y74.224 E27.51785
G1 X167.609 Y75.738 E27.53764
G1 X167.609 Y139.225 E28.33379
G1 X167.278 Y140.611 E28.35166
G1 X166.004 Y142.484 E28.38007
G1 X163.693 Y143.39 E28.41119
G1 X69.334 Y143.39 E29.59449
G1 X68.079 Y143.02 E29.6109
G1 X67.747 Y142.826 E29.61572
G1 X66.593 Y141.705 E29.6359
G1 X65.975 Y140.778 E29.64987
G1 X65.529 Y139.262 E29.66969
G1 X65.529 Y75.419 E30.4703
G1 X65.926 Y74.073 E30.4879
G1 X66.022 Y73.908 E30.49029
G1 X67.208 Y72.679 E30.51171
G0 F15000 X67.466 Y72.988
G1 F1800 X68.314 Y72.423 E30.52449
G1 X69.716 Y72.01 E30.54282
G1 X163.741 Y72.01 E31.72193
G1 X165.033 Y72.391 E31.73882
G1 X166.231 Y73.547 E31.75969
G1 X166.796 Y74.395 E31.77247
G1 X167.209 Y75.797 E31.7908
G1 X167.209 Y139.178 E32.58562
G1 X166.906 Y140.448 E32.602
G1 X165.745 Y142.161 E32.62795
G1 X163.617 Y142.99 E32.65659
G1 X69.393 Y142.99 E33.83819
G1 X68.192 Y142.636 E33.85389
G1 X68.026 Y142.539 E33.8563
G1 X66.902 Y141.447 E33.87596
G1 X66.342 Y140.607 E33.88862
G1 X65.929 Y139.203 E33.90697
G1 X65.929 Y75.478 E34.7061
G1 X66.31 Y74.186 E34.723
G1 X67.466 Y72.988 E34.74387
G0 F15000 X67.724 Y73.297
G1 F1800 X68.485 Y72.79 E34.75534
G1 X69.775 Y72.41 E34.7722
G1 X163.682 Y72.41 E35.94983
G1 X164.826 Y72.747 E35.96479
G1 X165.922 Y73.805 E35.98389
G1 X166.429 Y74.566 E35.99536
G1 X166.809 Y75.856 E36.01222
G1 X166.809 Y139.131 E36.80572
G1 X166.534 Y140.285 E36.82059
G1 X165.49 Y141.831 E36.84399
G1 X163.541 Y142.59 E36.87021
G1 X69.452 Y142.59 E38.05013
G1 X68.305 Y142.252 E38.06512
G1 X67.211 Y141.189 E38.08425
G1 X66.709 Y140.436 E38.0956
G1 X66.329 Y139.144 E38.11249
G1 X66.329 Y75.537 E38.91014
G1 X66.666 Y74.393 E38.9251
G1 X67.724 Y73.297 E38.9442
G0 F15000 X67.982 Y73.606
G1 F1800 X68.656 Y73.157 E38.95436
G1 X69.834 Y72.81 E38.96976
G1 X163.623 Y72.81 E40.14591
G1 X164.619 Y73.103 E40.15893
G1 X165.613 Y74.063 E40.17626
G1 X166.062 Y74.737 E40.18641
G1 X166.409 Y75.915 E40.20181
G1 X166.409 Y139.084 E40.99397
G1 X166.162 Y140.122 E41.00735
G1 X165.235 Y141.501 E41.02819
G1 X163.465 Y142.19 E41.05201
G1 X69.511 Y142.19 E42.23023
G1 X68.513 Y141.896 E42.24328
G1 X67.52 Y140.931 E42.26064
G1 X67.076 Y140.265 E42.27068
G1 X66.729 Y139.085 E42.2861
G1 X66.729 Y75.596 E43.08228
G1 X67.022 Y74.6 E43.0953
G1 X67.982 Y73.606 E43.11263
G0 F15000 X68.24 Y73.915
G1 F1800 X68.827 Y73.524 E43.12147
G1 X69.893 Y73.21 E43.13541
G1 X163.564 Y73.21 E44.31008
G1 X164.412 Y73.459 E44.32116
G1 X165.304 Y74.321 E44.33672
G1 X165.695 Y74.908 E44.34556
G1 X166.009 Y75.974 E44.3595
G1 X166.009 Y139.037 E45.15033
G1 X165.79 Y139.958 E45.1622
G1 X164.98 Y141.17 E45.18048
G1 X163.389 Y141.79 E45.2019
G1 X69.57 Y141.79 E46.37842
G1 X68.721 Y141.54 E46.38952
G1 X67.829 Y140.673 E46.40512
G1 X67.443 Y140.094 E46.41384
G1 X67.129 Y139.026 E46.4278
G1 X67.129 Y75.655 E47.2225
G1 X67.378 Y74.807 E47.23358
G1 X68.24 Y73.915 E47.24914
G0 F15000 X68.528 Y74.193
G1 F1800 X68.998 Y73.891 E47.25615
G1 X69.952 Y73.61 E47.26862
G1 X163.506 Y73.61 E48.44182
G1 X164.205 Y73.815 E48.45095
G1 X165.026 Y74.609 E48.46528
G1 X165.328 Y75.079 E48.47228
G1 X165.609 Y76.033 E48.48475
G1 X165.609 Y138.991 E49.27427
G1 X165.418 Y139.796 E49.28465
G1 X164.725 Y140.84 E49.30036
G1 X163.313 Y141.39 E49.31936
G1 X69.629 Y141.39 E50.49419
G1 X68.929 Y141.184 E50.50335
G1 X68.108 Y140.386 E50.5177
G1 X67.827 Y139.981 E50.52388
G1 X67.529 Y138.967 E50.53714
G1 X67.529 Y75.713 E51.33037
G1 X67.734 Y75.014 E51.3395
G1 X68.528 Y74.193 E51.35382
G0 F15000 X68.816 Y74.471
G1 F1800 X69.111 Y74.275 E51.35827
G1 X70.011 Y74.01 E51.37003
G1 X163.506 Y74.01 E52.54249
G1 X163.997 Y74.171 E52.54897
G1 X164.748 Y74.897 E52.56207
G1 X164.944 Y75.192 E52.56651
G1 X165.209 Y76.092 E52.57828
G1 X165.209 Y138.945 E53.36648
G1 X165.046 Y139.634 E53.37536
G1 X164.469 Y140.51 E53.38851
G1 X163.237 Y140.99 E53.40509
G1 X69.629 Y140.99 E54.57897
G1 X69.138 Y140.829 E54.58545
G1 X68.387 Y140.099 E54.59859
G1 X68.193 Y139.806 E54.60299
G1 X67.929 Y138.908 E54.61473
G1 X67.929 Y75.713 E55.40722
G1 X68.09 Y75.222 E55.4137
G1 X68.816 Y74.471 E55.4268
G0 F15000 X69.104 Y74.749
G1 F1800 X69.279 Y74.643 E55.42936
G1 X70.07 Y74.41 E55.43971
G1 X163.506 Y74.41 E56.61143
G1 X163.719 Y74.459 E56.61417
G1 X164.47 Y75.185 E56.62727
G1 X164.576 Y75.36 E56.62983
G1 X164.809 Y76.151 E56.64017
G1 X164.809 Y138.945 E57.42763
G1 X164.674 Y139.472 E57.43446
G1 X164.205 Y140.184 E57.44515
G1 X163.161 Y140.59 E57.45919
G1 X69.629 Y140.59 E58.63212
G1 X69.417 Y140.542 E58.63485
G1 X68.666 Y139.812 E58.64798
G1 X68.561 Y139.638 E58.65053
G1 X68.329 Y138.849 E58.66084
G1 X68.329 Y75.713 E59.45259
G1 X68.378 Y75.5 E59.45533
G1 X69.104 Y74.749 E59.46843
G0 F15000 X69.392 Y75.027
G1 F1800 X70.129 Y74.81 E59.47807
G1 X163.506 Y74.81 E60.64905
G1 X164.192 Y75.473 E60.66101
G1 X164.409 Y76.21 E60.67065
G1 X164.409 Y138.945 E61.45737
G1 X164.34 Y139.252 E61.46131
G1 X163.941 Y139.857 E61.4704
G1 X163.085 Y140.19 E61.48192
G1 X69.629 Y140.19 E62.65389
G1 X68.945 Y139.525 E62.66586
G1 X68.729 Y138.79 E62.67546
G1 X68.729 Y75.713 E63.46647
G1 X69.392 Y75.027 E63.47843
G0 F15000 X69.607 Y75.38
G1 F1800 X70.129 Y75.21 E63.48532
G1 X163.374 Y75.21 E64.65465
G1 X163.839 Y75.688 E64.66301
G1 X164.009 Y76.21 E64.66989
G1 X164.009 Y138.945 E65.45661
G1 X163.954 Y139.147 E65.45924
G1 X163.682 Y139.533 E65.46516
G1 X163.009 Y139.79 E65.47419
G1 X69.762 Y139.79 E66.64355
G1 X69.299 Y139.312 E66.65189
G1 X69.129 Y138.79 E66.65878
G1 X69.129 Y75.845 E67.44813
G1 X69.607 Y75.38 E67.45649
G0 F15000 X69.749 Y75.754
G1 F1800 X70.129 Y75.61 E67.46159
G1 X163.24 Y75.61 E68.62924
G1 X163.465 Y75.83 E68.63318
G1 X163.609 Y76.21 E68.63828
G1 X163.609 Y138.945 E69.425
G1 X163.459 Y139.201 E69.42872
G1 X163.009 Y139.39 E69.43484
G1 X69.897 Y139.39 E70.6025
G1 X69.673 Y139.17 E70.60644
G1 X69.529 Y138.79 E70.61153
G1 X69.529 Y75.979 E71.3992
G1 X69.749 Y75.754 E71.40315
G0 F15000 X69.929 Y76.111
G1 F1800 X70.129 Y76.01 E71.40596
G1 X163.108 Y76.01 E72.57195
G1 X163.209 Y76.21 E72.57476
G1 X163.209 Y138.889 E73.36078
G1 X163.009 Y138.99 E73.36359
G1 X70.03 Y138.99 E74.52958
G1 X69.929 Y138.79 E74.53239
G1 X69.929 Y76.111 E75.31841
M204 S429
G1 F1500 E68.81841
G1 F600 Z2.2
;MESH:Outside.stl
G0 F15000 X117.085 Y113.253 Z2.2
;TYPE:WALL-OUTER
G1 F600 Z0.2
G1 F1500 E75.31841
G1 F1800 X116.04 Y113.252 E75.33282
G1 X115.55 Y113.186 E75.33964
G1 X114.539 Y112.907 E75.35411
G1 X113.6 Y112.455 E75.36849
G1 X112.772 Y111.851 E75.38262
G1 X112.391 Y111.488 E75.38988
G1 X111.75 Y110.683 E75.40408
G1 X111.477 Y110.225 E75.41143
G1 X111.077 Y109.286 E75.42551
G1 X110.846 Y108.281 E75.43974
G1 X110.8 Y107.764 E75.4469
G1 X110.844 Y106.737 E75.46108
G1 X111.075 Y105.721 E75.47545
G1 X111.483 Y104.764 E75.4898
G1 X111.751 Y104.315 E75.49701
G1 X112.384 Y103.521 E75.51102
G1 X112.771 Y103.148 E75.51844
G1 X113.603 Y102.544 E75.53262
G1 X114.539 Y102.093 E75.54695
G1 X115.55 Y101.814 E75.56142
G1 X116.053 Y101.747 E75.56842
G1 X117.098 Y101.748 E75.58283
G1 X117.588 Y101.814 E75.58965
G1 X118.599 Y102.093 E75.60412
G1 X119.525 Y102.538 E75.61829
G1 X120.374 Y103.154 E75.63276
G1 X120.76 Y103.528 E75.64018
G1 X121.388 Y104.317 E75.65409
G1 X121.659 Y104.772 E75.66139
G1 X122.061 Y105.712 E75.6755
G1 X122.205 Y106.237 E75.683
G1 X122.339 Y107.229 E75.69681
G1 X122.338 Y107.777 E75.70437
G1 X122.204 Y108.77 E75.71819
G1 X122.062 Y109.286 E75.72558
G1 X121.657 Y110.233 E75.73978
G1 X121.387 Y110.685 E75.74705
G1 X120.743 Y111.491 E75.76128
G1 X120.367 Y111.852 E75.76847
G1 X119.537 Y112.455 E75.78262
G1 X118.599 Y112.907 E75.79698
G1 X117.588 Y113.186 E75.81145
G1 X117.085 Y113.253 E75.81845
G0 F15000 X116.885 Y113.253
G1 F1500 E69.31845
G1 F600 Z2.2
G0 F15000 X70.329 Y138.59 Z2.2
G1 F600 Z0.2
G1 F1500 E75.81845
G1 F1800 X162.809 Y138.59 E77.09416
G1 X162.809 Y76.41 E77.95189
G1 X70.329 Y76.41 E79.2276
G1 X70.329 Y138.59 E80.08534
M204 S1000
G0 F15000 X70.529 Y138.59
G0 X70.729 Y138.19
;TYPE:WALL-INNER
G1 F1800 X162.409 Y138.19 E81.17755
G1 X162.409 Y76.81 E81.9088
G1 X70.729 Y76.81 E83.00101
G1 X70.729 Y138.19 E83.73225
G1 F1500 E77.23225
G1 F600 Z2.2
G0 F15000 X116.026 Y113.652 Z2.2
G1 F600 Z0.2
G1 F1500 E83.73225
G1 F1800 X115.416 Y113.566 E83.73959
G1 X114.375 Y113.272 E83.75248
G1 X113.415 Y112.81 E83.76517
G1 X112.501 Y112.146 E83.77863
G1 X112.101 Y111.764 E83.78522
G1 X111.432 Y110.926 E83.79799
G1 X111.142 Y110.446 E83.80468
G1 X110.704 Y109.432 E83.81783
G1 X110.452 Y108.353 E83.83103
G1 X110.4 Y107.773 E83.83797
G1 X110.446 Y106.674 E83.85108
G1 X110.702 Y105.575 E83.86452
G1 X111.118 Y104.599 E83.87716
G1 X111.412 Y104.103 E83.88403
G1 X112.082 Y103.259 E83.89687
G1 X112.521 Y102.836 E83.90413
G1 X113.387 Y102.207 E83.91688
G1 X114.409 Y101.715 E83.93039
G1 X115.416 Y101.434 E83.94285
G1 X116.026 Y101.348 E83.95019
G1 X117.112 Y101.348 E83.96312
G1 X117.722 Y101.434 E83.97046
G1 X118.763 Y101.728 E83.98335
G1 X119.751 Y102.207 E83.99643
G1 X120.617 Y102.836 E84.00918
G1 X121.038 Y103.239 E84.01613
G1 X121.69 Y104.052 E84.02854
G1 X121.994 Y104.551 E84.0355
G1 X122.434 Y105.566 E84.04868
G1 X122.59 Y106.123 E84.05557
G1 X122.739 Y107.22 E84.06876
G1 X122.739 Y107.777 E84.0754
G1 X122.598 Y108.839 E84.08816
G1 X122.443 Y109.408 E84.09519
G1 X122.021 Y110.398 E84.10801
G1 X121.726 Y110.897 E84.11491
G1 X121.057 Y111.74 E84.12773
G1 X120.638 Y112.146 E84.13468
G1 X119.753 Y112.792 E84.14774
G1 X118.729 Y113.285 E84.16128
G1 X117.722 Y113.566 E84.17373
G1 X117.112 Y113.652 E84.18107
G1 X116.026 Y113.652 E84.19401
G0 F15000 X117.115 Y113.673
G0 X117.136 Y113.972
;TYPE:SKIN
G1 F1800 X115.989 Y113.971 E84.20631
G1 X115.408 Y113.892 E84.21259
G1 X114.273 Y113.579 E84.22522
G1 X113.221 Y113.068 E84.23776
G1 X112.295 Y112.39 E84.25006
G1 X111.831 Y111.94 E84.25699
G1 X111.167 Y111.107 E84.26842
G1 X110.829 Y110.537 E84.27552
G1 X110.402 Y109.539 E84.28716
G1 X110.136 Y108.408 E84.29962
G1 X110.08 Y107.79 E84.30627
G1 X110.128 Y106.641 E84.3186
G1 X110.4 Y105.468 E84.33151
G1 X110.839 Y104.446 E84.34344
G1 X111.166 Y103.893 E84.35033
G1 X111.868 Y103.02 E84.36234
G1 X112.284 Y102.617 E84.36855
G1 X113.225 Y101.928 E84.38105
G1 X114.252 Y101.43 E84.39329
