;START_OF_HEADER
;HEADER_VERSION:0.1
;FLAVOR:Griffin
;GENERATOR.NAME:Cura_SteamEngine
;GENERATOR.VERSION:5.3.1
;GENERATOR.BUILD_DATE:2023-04-19
;TARGET_MACHINE.NAME:Ultimaker 3 Extended
;EXTRUDER_TRAIN.0.INITIAL_TEMPERATURE:200
;EXTRUDER_TRAIN.0.MATERIAL.VOLUME_USED:71431
;EXTRUDER_TRAIN.0.MATERIAL.GUID:506c9f0d-e3aa-4bd4-b2d2-23e2425b1aa9
;EXTRUDER_TRAIN.0.NOZZLE.DIAMETER:0.4
;EXTRUDER_TRAIN.0.NOZZLE.NAME:AA 0.4
;BUILD_PLATE.INITIAL_TEMPERATURE:60
;PRINT.TIME:40043
;PRINT.GROUPS:1
;PRINT.SIZE.MIN.X:9
;PRINT.SIZE.MIN.Y:6
;PRINT.SIZE.MIN.Z:0.2
;PRINT.SIZE.MAX.X:217.486
;PRINT.SIZE.MAX.Y:167.814
;PRINT.SIZE.MAX.Z:34
;SLICE_UUID:b52a3775-522a-4e25-8791-33c98410f5ba
;END_OF_HEADER
;Generated with Cura_SteamEngine 5.3.1
T0
M82 ;absolute extrusion mode

G92 E0
M109 S200
G0 F4800 X9 Y6 Z2
G280
G1 F1500 E-6.5
;LAYER_COUNT:170
;LAYER:0
M106 S255
M204 S1000
M205 X20 Y20
G1 F600 Z2.2
G0 F4800 X46.144 Y50.212 Z2.2
;TYPE:SKIRT
G1 F600 Z0.2
G1 F1500 E0
G1 F1080 X49.216 Y49.209 E0.04053
G1 X117.691 Y49.209 E0.89923
G1 X118.673 Y48.257 E0.91638
G1 X121.743 Y47.254 E0.95688
G1 X198.752 Y47.254 E1.9226
G1 X200.921 Y47.745 E1.95049
G1 X202.62 Y48.9 E1.97625
G1 X204.571 Y50.911 E2.01139
G1 X205.574 Y53.983 E2.05192
G1 X205.574 Y94.508 E2.56011
G1 X206.015 Y94.543 E2.56566
G1 X207.72 Y94.854 E2.5874
G1 X208.669 Y95.134 E2.5998
G1 X210.56 Y95.946 E2.62561
G1 X211.376 Y96.413 E2.6374
G1 X213.038 Y97.654 E2.66341
G1 X214.121 Y98.701 E2.6823
G1 X214.97 Y99.733 E2.69906
G1 X215.826 Y101.053 E2.71879
G1 X216.456 Y102.322 E2.73656
G1 X216.94 Y103.641 E2.75418
G1 X217.381 Y105.552 E2.77877
G1 X217.486 Y106.487 E2.79057
G1 X217.459 Y108.803 E2.81962
G1 X217.351 Y109.615 E2.82989
G1 X216.968 Y111.209 E2.85045
G1 X216.373 Y112.807 E2.87183
G1 X215.571 Y114.342 E2.89355
G1 X215.132 Y115.005 E2.90352
G1 X213.794 Y116.597 E2.9296
G1 X212.85 Y117.473 E2.94575
G1 X211.843 Y118.231 E2.96155
G1 X210.03 Y119.271 E2.98777
G1 X208.988 Y119.706 E3.00193
G1 X207.46 Y120.159 E3.02191
G1 X206.47 Y120.352 E3.03456
G1 X205.574 Y120.409 E3.04582
G1 X205.574 Y160.934 E3.55402
G1 X204.943 Y163.345 E3.58527
G1 X203.629 Y165.208 E3.61386
G1 X202.201 Y166.528 E3.63825
G1 X199.287 Y167.814 E3.67819
G1 X121.835 Y167.814 E4.64947
G1 X119.907 Y167.394 E4.67421
G1 X118.087 Y166.284 E4.70094
G1 X117.587 Y165.769 E4.70995
G1 X49.308 Y165.769 E5.56619
G1 X47.38 Y165.349 E5.59093
G1 X45.56 Y164.239 E5.61767
G1 X43.478 Y162.093 E5.65516
G1 X42.487 Y159.036 E5.69546
G1 X42.487 Y56.031 E6.98718
G1 X42.978 Y53.862 E7.01507
G1 X44.133 Y52.163 E7.04084
G1 X46.144 Y50.212 E7.07597
G0 F4800 X46.357 Y50.563
G1 F1080 X49.279 Y49.609 E7.11452
G1 X117.853 Y49.609 E7.97446
G1 X118.885 Y48.608 E7.99249
G1 X121.806 Y47.654 E8.03103
G1 X198.708 Y47.654 E8.99541
G1 X200.758 Y48.118 E9.02176
G1 X202.361 Y49.208 E9.04607
G1 X204.22 Y51.124 E9.07955
G1 X205.174 Y54.046 E9.1181
G1 X205.174 Y94.88 E9.63017
G1 X205.943 Y94.937 E9.63984
G1 X207.648 Y95.248 E9.66158
G1 X208.511 Y95.502 E9.67286
G1 X210.402 Y96.314 E9.69866
G1 X211.176 Y96.76 E9.70987
G1 X212.76 Y97.942 E9.73465
G1 X213.843 Y98.989 E9.75354
G1 X214.634 Y99.951 E9.76916
G1 X215.49 Y101.271 E9.78889
G1 X216.08 Y102.46 E9.80553
G1 X216.564 Y103.779 E9.82315
G1 X216.983 Y105.597 E9.84655
G1 X217.088 Y106.532 E9.85835
G1 X217.062 Y108.75 E9.88617
G1 X216.954 Y109.562 E9.89644
G1 X216.593 Y111.069 E9.91587
G1 X215.998 Y112.667 E9.93725
G1 X215.237 Y114.121 E9.95783
G1 X214.798 Y114.784 E9.96781
G1 X213.522 Y116.304 E9.99269
G1 X212.609 Y117.153 E10.00833
G1 X211.602 Y117.911 E10.02413
G1 X209.831 Y118.924 E10.04972
G1 X208.874 Y119.322 E10.06272
G1 X207.346 Y119.775 E10.0827
G1 X206.394 Y119.959 E10.09486
G1 X205.174 Y120.032 E10.11019
G1 X205.174 Y160.883 E10.62248
G1 X204.575 Y163.173 E10.65216
G1 X203.325 Y164.945 E10.67935
G1 X201.979 Y166.189 E10.70234
G1 X199.203 Y167.414 E10.74039
G1 X121.879 Y167.414 E11.71006
G1 X120.056 Y167.017 E11.73346
G1 X118.341 Y165.971 E11.75865
G1 X117.756 Y165.369 E11.76918
G1 X49.352 Y165.369 E12.62699
G1 X47.529 Y164.972 E12.65038
G1 X45.814 Y163.926 E12.67558
G1 X43.83 Y161.881 E12.71131
G1 X42.887 Y158.972 E12.74965
G1 X42.887 Y56.075 E14.04002
G1 X43.351 Y54.025 E14.06638
G1 X44.441 Y52.422 E14.09069
G1 X46.357 Y50.563 E14.12417
G0 F4800 X46.57 Y50.914
G1 F1080 X49.342 Y50.009 E14.16073
G1 X118.014 Y50.009 E15.02191
G1 X119.097 Y48.959 E15.04082
G1 X121.869 Y48.054 E15.07739
G1 X198.664 Y48.054 E16.04043
G1 X200.595 Y48.491 E16.06526
G1 X202.102 Y49.516 E16.08811
G1 X203.869 Y51.337 E16.11993
G1 X204.774 Y54.109 E16.1565
G1 X204.774 Y95.253 E16.67246
G1 X205.871 Y95.331 E16.68625
G1 X207.576 Y95.642 E16.70799
G1 X208.354 Y95.87 E16.71815
G1 X210.202 Y96.661 E16.74336
G1 X210.976 Y97.107 E16.75456
G1 X212.482 Y98.23 E16.77812
G1 X213.565 Y99.277 E16.79701
G1 X214.298 Y100.169 E16.81149
G1 X215.154 Y101.489 E16.83122
G1 X215.704 Y102.598 E16.84674
G1 X216.188 Y103.917 E16.86436
G1 X216.585 Y105.642 E16.88656
G1 X216.69 Y106.577 E16.89836
G1 X216.665 Y108.697 E16.92495
G1 X216.557 Y109.509 E16.93522
G1 X216.218 Y110.929 E16.95353
G1 X215.623 Y112.527 E16.97491
G1 X214.903 Y113.9 E16.99435
G1 X214.464 Y114.563 E17.00432
G1 X213.216 Y116.046 E17.02863
G1 X212.368 Y116.833 E17.04314
G1 X211.361 Y117.591 E17.05894
G1 X209.633 Y118.576 E17.08389
G1 X208.76 Y118.938 E17.09574
G1 X207.232 Y119.391 E17.11572
G1 X206.319 Y119.566 E17.12738
G1 X204.774 Y119.655 E17.14679
G1 X204.774 Y160.832 E17.66316
G1 X204.206 Y163.002 E17.69129
G1 X203.025 Y164.677 E17.717
G1 X201.755 Y165.851 E17.73868
G1 X199.119 Y167.014 E17.77481
G1 X121.923 Y167.014 E18.74288
G1 X120.205 Y166.64 E18.76493
G1 X118.595 Y165.658 E18.78858
G1 X117.926 Y164.969 E18.80062
G1 X49.396 Y164.969 E19.66001
G1 X47.678 Y164.595 E19.68206
G1 X46.068 Y163.613 E19.70571
G1 X44.182 Y161.669 E19.73968
G1 X43.287 Y158.908 E19.77608
G1 X43.287 Y56.119 E21.06509
G1 X43.724 Y54.188 E21.08992
G1 X44.749 Y52.681 E21.11277
G1 X46.57 Y50.914 E21.14459
G0 F4800 X46.783 Y51.265
G1 F1080 X49.405 Y50.409 E21.17918
G1 X118.177 Y50.409 E22.04161
G1 X119.31 Y49.31 E22.0614
G1 X121.932 Y48.454 E22.09599
G1 X198.62 Y48.454 E23.05769
G1 X200.432 Y48.864 E23.08098
G1 X201.843 Y49.824 E23.10238
G1 X203.518 Y51.55 E23.13255
G1 X204.374 Y54.172 E23.16713
G1 X204.374 Y95.685 E23.68772
G1 X204.874 Y95.661 E23.694
G1 X205.799 Y95.725 E23.70563
G1 X207.504 Y96.036 E23.72736
G1 X208.24 Y96.254 E23.73699
G1 X210.002 Y97.008 E23.76102
G1 X210.776 Y97.454 E23.77222
G1 X212.204 Y98.518 E23.79456
G1 X213.287 Y99.565 E23.81345
G1 X213.962 Y100.387 E23.82678
G1 X214.818 Y101.707 E23.84651
G1 X215.328 Y102.736 E23.86092
G1 X215.812 Y104.055 E23.87854
G1 X216.187 Y105.687 E23.89953
G1 X216.292 Y106.622 E23.91133
G1 X216.268 Y108.644 E23.93669
G1 X216.16 Y109.456 E23.94696
G1 X215.843 Y110.789 E23.96415
G1 X215.248 Y112.387 E23.98553
G1 X214.569 Y113.679 E24.00383
G1 X214.13 Y114.342 E24.01381
G1 X212.944 Y115.753 E24.03692
G1 X212.127 Y116.513 E24.05091
G1 X211.12 Y117.271 E24.06672
G1 X209.479 Y118.207 E24.09041
G1 X208.646 Y118.554 E24.10173
G1 X207.118 Y119.007 E24.12171
G1 X206.244 Y119.173 E24.13287
G1 X204.374 Y119.277 E24.15636
G1 X204.374 Y160.781 E24.67683
G1 X203.838 Y162.83 E24.70339
G1 X202.721 Y164.414 E24.7277
G1 X201.533 Y165.512 E24.74798
G1 X199.035 Y166.614 E24.78222
G1 X121.967 Y166.614 E25.74868
G1 X120.354 Y166.263 E25.76938
G1 X118.849 Y165.345 E25.79149
G1 X118.095 Y164.569 E25.80506
G1 X49.44 Y164.569 E26.66602
G1 X47.827 Y164.218 E26.68672
G1 X46.322 Y163.3 E26.70883
G1 X44.534 Y161.457 E26.74103
G1 X43.687 Y158.844 E26.77548
G1 X43.687 Y56.163 E28.06313
G1 X44.097 Y54.351 E28.08643
G1 X45.057 Y52.94 E28.10783
G1 X46.783 Y51.265 E28.13799
G0 F4800 X46.996 Y51.616
G1 F1080 X49.468 Y50.809 E28.1706
G1 X118.34 Y50.809 E29.03428
G1 X119.523 Y49.661 E29.05496
G1 X121.995 Y48.854 E29.08757
G1 X198.576 Y48.854 E30.04792
G1 X200.269 Y49.237 E30.06969
G1 X201.584 Y50.132 E30.08964
G1 X203.167 Y51.763 E30.11814
G1 X203.974 Y54.235 E30.15075
G1 X203.974 Y96.106 E30.67583
G1 X204.894 Y96.061 E30.68738
G1 X205.77 Y96.124 E30.69839
G1 X207.39 Y96.42 E30.71904
G1 X208.126 Y96.638 E30.72867
G1 X209.802 Y97.355 E30.75153
G1 X210.576 Y97.801 E30.76273
G1 X211.926 Y98.806 E30.78384
G1 X213.009 Y99.853 E30.80273
G1 X213.626 Y100.605 E30.81492
G1 X214.482 Y101.925 E30.83465
G1 X214.952 Y102.874 E30.84793
G1 X215.436 Y104.193 E30.86555
G1 X215.789 Y105.732 E30.88535
G1 X215.894 Y106.667 E30.89715
G1 X215.871 Y108.591 E30.92128
G1 X215.763 Y109.403 E30.93156
G1 X215.468 Y110.65 E30.94762
G1 X214.894 Y112.201 E30.96836
G1 X214.235 Y113.458 E30.98616
G1 X213.796 Y114.121 E30.99613
G1 X212.638 Y115.495 E31.01867
G1 X211.886 Y116.193 E31.03153
G1 X210.879 Y116.951 E31.04734
G1 X209.325 Y117.838 E31.06978
G1 X208.532 Y118.17 E31.08056
G1 X207.004 Y118.623 E31.10055
G1 X206.17 Y118.78 E31.11119
G1 X203.974 Y118.898 E31.13877
G1 X203.974 Y160.73 E31.66336
G1 X203.47 Y162.658 E31.68835
G1 X202.419 Y164.148 E31.71121
G1 X201.309 Y165.174 E31.73017
G1 X198.951 Y166.214 E31.76249
G1 X122.011 Y166.214 E32.72734
G1 X120.503 Y165.886 E32.74669
G1 X119.103 Y165.032 E32.76726
G1 X118.265 Y164.169 E32.78234
G1 X49.484 Y164.169 E33.64488
G1 X47.976 Y163.841 E33.66424
G1 X46.576 Y162.987 E33.6848
G1 X44.886 Y161.245 E33.71524
G1 X44.087 Y158.78 E33.74773
G1 X44.087 Y56.207 E35.03404
G1 X44.47 Y54.514 E35.0558
G1 X45.365 Y53.199 E35.07575
G1 X46.996 Y51.616 E35.10426
G0 F4800 X47.209 Y51.967
G1 F1080 X45.673 Y53.458 E35.1311
G1 X44.843 Y54.677 E35.14959
G1 X44.487 Y56.251 E35.16983
G1 X44.487 Y158.716 E36.45478
G1 X45.238 Y161.033 E36.48532
G1 X46.83 Y162.674 E36.514
G1 X48.125 Y163.464 E36.53302
G1 X49.528 Y163.769 E36.55102
G1 X118.434 Y163.769 E37.41513
G1 X119.357 Y164.719 E37.43174
G1 X120.652 Y165.509 E37.45076
G1 X122.055 Y165.814 E37.46877
G1 X198.867 Y165.814 E38.43202
G1 X201.087 Y164.835 E38.46245
G1 X202.115 Y163.885 E38.48
G1 X203.102 Y162.486 E38.50147
G1 X203.574 Y160.679 E38.52489
G1 X203.574 Y118.454 E39.05441
G1 X204.062 Y118.493 E39.06055
G1 X206.097 Y118.387 E39.0861
G1 X206.89 Y118.239 E39.09622
G1 X208.418 Y117.786 E39.1162
G1 X209.169 Y117.469 E39.12643
G1 X210.638 Y116.631 E39.14764
G1 X211.645 Y115.873 E39.16344
G1 X212.365 Y115.202 E39.17578
G1 X213.462 Y113.9 E39.19713
G1 X213.901 Y113.237 E39.20711
G1 X214.539 Y112.016 E39.22438
G1 X215.079 Y110.557 E39.24389
G1 X215.366 Y109.35 E39.25945
G1 X215.474 Y108.538 E39.26972
G1 X215.496 Y106.712 E39.29262
G1 X215.391 Y105.777 E39.30442
G1 X215.06 Y104.331 E39.32302
G1 X214.576 Y103.012 E39.34064
G1 X214.146 Y102.143 E39.3528
G1 X213.29 Y100.823 E39.37253
G1 X212.731 Y100.141 E39.38359
G1 X211.648 Y99.094 E39.40248
G1 X210.376 Y98.148 E39.42236
G1 X209.602 Y97.702 E39.43356
G1 X208.012 Y97.022 E39.45525
G1 X207.276 Y96.804 E39.46487
G1 X205.74 Y96.523 E39.48445
G1 X204.914 Y96.461 E39.49484
G1 X203.574 Y96.527 E39.51167
G1 X203.574 Y54.298 E40.04123
G1 X202.816 Y51.976 E40.07186
G1 X201.325 Y50.44 E40.09871
G1 X200.106 Y49.61 E40.1172
G1 X198.532 Y49.254 E40.13744
G1 X122.058 Y49.254 E41.09645
G1 X119.736 Y50.012 E41.12708
G1 X118.503 Y51.209 E41.14863
G1 X49.531 Y51.209 E42.01357
G1 X47.209 Y51.967 E42.0442
G0 F4800 X47.422 Y52.318
G1 F1080 X45.981 Y53.717 E42.06938
G1 X45.216 Y54.84 E42.08642
G1 X44.887 Y56.295 E42.10513
G1 X44.887 Y158.652 E43.38873
G1 X45.59 Y160.821 E43.41732
G1 X47.084 Y162.361 E43.44423
G1 X48.274 Y163.087 E43.46171
G1 X49.572 Y163.369 E43.47836
G1 X118.604 Y163.369 E44.34405
G1 X119.611 Y164.406 E44.36218
G1 X120.801 Y165.132 E44.37966
G1 X122.099 Y165.414 E44.39632
G1 X198.783 Y165.414 E45.35796
G1 X200.865 Y164.496 E45.3865
G1 X201.813 Y163.62 E45.40268
G1 X202.733 Y162.315 E45.42271
G1 X203.174 Y160.628 E45.44457
G1 X203.174 Y118.02 E45.97889
G1 X204.094 Y118.094 E45.99047
G1 X206.024 Y117.994 E46.0147
G1 X206.776 Y117.855 E46.02429
G1 X208.304 Y117.402 E46.04428
G1 X209.013 Y117.101 E46.05394
G1 X210.397 Y116.311 E46.07392
G1 X211.404 Y115.553 E46.08973
G1 X212.059 Y114.944 E46.10094
G1 X213.128 Y113.679 E46.12171
G1 X213.567 Y113.016 E46.13169
G1 X214.164 Y111.877 E46.14781
G1 X214.704 Y110.418 E46.16732
G1 X214.969 Y109.297 E46.18177
G1 X215.077 Y108.485 E46.19204
G1 X215.098 Y106.757 E46.21371
G1 X214.993 Y105.822 E46.22551
G1 X214.684 Y104.469 E46.24291
G1 X214.2 Y103.15 E46.26053
G1 X213.81 Y102.361 E46.27157
G1 X212.954 Y101.041 E46.2913
G1 X212.422 Y100.396 E46.30178
G1 X211.37 Y99.382 E46.32011
G1 X210.176 Y98.495 E46.33876
G1 X209.402 Y98.049 E46.34996
G1 X207.898 Y97.406 E46.37047
G1 X207.162 Y97.188 E46.3801
G1 X205.71 Y96.922 E46.39861
G1 X204.884 Y96.86 E46.409
G1 X203.174 Y96.947 E46.43047
G1 X203.174 Y54.361 E46.96452
G1 X202.465 Y52.189 E46.99317
G1 X201.066 Y50.748 E47.01835
G1 X199.943 Y49.983 E47.03539
G1 X198.488 Y49.654 E47.0541
G1 X122.121 Y49.654 E48.01177
G1 X119.949 Y50.363 E48.04042
G1 X118.666 Y51.609 E48.06285
G1 X49.594 Y51.609 E48.92904
G1 X47.422 Y52.318 E48.95769
G0 F4800 X47.635 Y52.669
G1 F1080 X49.657 Y52.009 E48.98436
G1 X118.829 Y52.009 E49.85181
G1 X120.162 Y50.714 E49.87511
G1 X122.184 Y50.054 E49.90179
G1 X198.444 Y50.054 E50.85811
G1 X199.78 Y50.356 E50.87529
G1 X200.807 Y51.056 E50.89088
G1 X202.114 Y52.402 E50.91441
G1 X202.774 Y54.424 E50.94108
G1 X202.774 Y97.368 E51.47961
G1 X204.854 Y97.259 E51.50573
G1 X205.68 Y97.321 E51.51612
G1 X207.048 Y97.572 E51.53356
G1 X207.784 Y97.79 E51.54319
G1 X209.202 Y98.396 E51.56253
G1 X209.976 Y98.842 E51.57373
G1 X211.093 Y99.67 E51.59116
G1 X212.113 Y100.651 E51.60891
G1 X212.645 Y101.296 E51.6194
G1 X213.452 Y102.539 E51.63798
G1 X213.824 Y103.288 E51.64847
G1 X214.308 Y104.607 E51.66609
G1 X214.595 Y105.867 E51.68229
G1 X214.7 Y106.802 E51.69409
G1 X214.68 Y108.432 E51.71453
G1 X214.572 Y109.244 E51.72481
G1 X214.329 Y110.28 E51.73815
G1 X213.809 Y111.692 E51.75702
G1 X213.233 Y112.795 E51.77263
G1 X212.794 Y113.458 E51.7826
G1 X211.754 Y114.685 E51.80277
G1 X211.163 Y115.233 E51.81287
G1 X210.156 Y115.991 E51.82868
G1 X208.815 Y116.753 E51.84802
G1 X208.19 Y117.018 E51.85654
G1 X206.662 Y117.471 E51.87652
G1 X205.952 Y117.6 E51.88557
G1 X204.126 Y117.695 E51.9085
G1 X202.774 Y117.586 E51.92551
G1 X202.774 Y160.577 E52.46463
G1 X202.365 Y162.143 E52.48493
G1 X201.509 Y163.357 E52.50356
G1 X200.643 Y164.157 E52.51834
G1 X198.699 Y165.014 E52.54499
G1 X122.143 Y165.014 E53.50503
G1 X120.95 Y164.755 E53.52034
G1 X119.865 Y164.093 E53.53627
G1 X118.774 Y162.969 E53.55592
G1 X49.616 Y162.969 E54.42318
G1 X48.423 Y162.71 E54.43849
G1 X47.338 Y162.048 E54.45443
G1 X45.942 Y160.609 E54.47957
G1 X45.287 Y158.588 E54.50622
G1 X45.287 Y56.339 E55.78846
G1 X45.589 Y55.003 E55.80563
G1 X46.289 Y53.976 E55.82122
G1 X47.635 Y52.669 E55.84475
G0 F4800 X47.848 Y53.02
G1 F1080 X49.72 Y52.409 E55.86944
G1 X119.038 Y52.409 E56.73871
G1 X119.167 Y52.239 E56.74139
G1 X120.375 Y51.065 E56.76252
G1 X122.247 Y50.454 E56.78721
G1 X198.4 Y50.454 E57.7422
G1 X199.619 Y50.729 E57.75787
G1 X200.545 Y51.361 E57.77193
G1 X201.763 Y52.615 E57.79385
G1 X202.374 Y54.487 E57.81854
G1 X202.374 Y97.88 E58.36271
G1 X203.092 Y97.749 E58.37186
G1 X204.824 Y97.658 E58.39361
G1 X205.65 Y97.72 E58.404
G1 X206.934 Y97.956 E58.42037
G1 X207.67 Y98.174 E58.43
G1 X209.002 Y98.743 E58.44816
G1 X209.776 Y99.189 E58.45936
G1 X210.854 Y99.991 E58.47621
G1 X211.804 Y100.906 E58.49275
G1 X212.336 Y101.551 E58.50324
G1 X213.094 Y102.718 E58.52069
G1 X213.448 Y103.426 E58.53061
G1 X213.932 Y104.745 E58.54823
G1 X214.197 Y105.912 E58.56324
G1 X214.302 Y106.847 E58.57504
G1 X214.283 Y108.379 E58.59425
G1 X214.175 Y109.191 E58.60453
