;START_OF_HEADER
;HEADER_VERSION:0.1
;FLAVOR:Griffin
;GENERATOR.NAME:Cura_SteamEngine
;GENERATOR.VERSION:5.3.1
;GENERATOR.BUILD_DATE:2023-04-19
;TARGET_MACHINE.NAME:Ultimaker 3 Extended
;EXTRUDER_TRAIN.0.INITIAL_TEMPERATURE:200
;EXTRUDER_TRAIN.0.MATERIAL.VOLUME_USED:71638
;EXTRUDER_TRAIN.0.MATERIAL.GUID:506c9f0d-e3aa-4bd4-b2d2-23e2425b1aa9
;EXTRUDER_TRAIN.0.NOZZLE.DIAMETER:0.4
;EXTRUDER_TRAIN.0.NOZZLE.NAME:AA 0.4
;BUILD_PLATE.INITIAL_TEMPERATURE:60
;PRINT.TIME:40359
;PRINT.GROUPS:1
;PRINT.SIZE.MIN.X:9
;PRINT.SIZE.MIN.Y:6
;PRINT.SIZE.MIN.Z:0.2
;PRINT.SIZE.MAX.X:207.526
;PRINT.SIZE.MAX.Y:167.82
;PRINT.SIZE.MAX.Z:34
;SLICE_UUID:6171531f-52d4-4ad4-b674-85de9cf1fe73
;END_OF_HEADER
;Generated with Cura_SteamEngine 5.3.1
T0
M82 ;absolute extrusion mode

G92 E0
M109 S200
G0 F4800 X9 Y6 Z2
G280
G1 F1500 E-6.5
;LAYER_COUNT:170
;LAYER:0
M106 S255
M204 S1000
M205 X20 Y20
G1 F600 Z2.2
G0 F4800 X23.536 Y49.247 Z2.2
;TYPE:SKIRT
G1 F600 Z0.2
G1 F1500 E0
G1 F1080 X96.545 Y49.247 E0.91556
G1 X97.901 Y49.554 E0.933
G1 X99.232 Y48.263 E0.95625
G1 X102.304 Y47.26 E0.99677
G1 X179.313 Y47.26 E1.96249
G1 X181.482 Y47.751 E1.99038
G1 X183.181 Y48.906 E2.01615
G1 X185.132 Y50.917 E2.05128
G1 X186.135 Y53.989 E2.09181
G1 X186.135 Y97.557 E2.63817
G1 X186.933 Y96.91 E2.65105
G1 X187.951 Y96.25 E2.66626
G1 X189.303 Y95.569 E2.68525
G1 X191.082 Y94.93 E2.70895
G1 X191.781 Y94.76 E2.71797
G1 X194.19 Y94.48 E2.74839
G1 X194.846 Y94.48 E2.75661
G1 X197.148 Y94.75 E2.78568
G1 X198.577 Y95.121 E2.80419
G1 X199.426 Y95.432 E2.81553
G1 X201.082 Y96.256 E2.83873
G1 X202.283 Y97.051 E2.85679
G1 X203.798 Y98.363 E2.88192
G1 X204.595 Y99.245 E2.89683
G1 X205.21 Y100.062 E2.90965
G1 X206.366 Y102.075 E2.93876
G1 X206.615 Y102.656 E2.94669
G1 X207.276 Y104.87 E2.97567
G1 X207.395 Y105.532 E2.9841
G1 X207.526 Y108.098 E3.01632
G1 X207.444 Y109.077 E3.02864
G1 X207.17 Y110.563 E3.04759
G1 X206.712 Y112.063 E3.06726
G1 X206.217 Y113.214 E3.08297
G1 X205.201 Y114.955 E3.10825
G1 X204.628 Y115.716 E3.1202
G1 X203.35 Y117.064 E3.14349
G1 X202.021 Y118.146 E3.16498
G1 X201.166 Y118.701 E3.17776
G1 X199.377 Y119.59 E3.20282
G1 X198.635 Y119.862 E3.21273
G1 X196.538 Y120.363 E3.23976
G1 X195.324 Y120.498 E3.25508
G1 X194.232 Y120.52 E3.26878
G1 X191.806 Y120.242 E3.2994
G1 X190.797 Y119.983 E3.31246
G1 X189.371 Y119.461 E3.33151
G1 X187.554 Y118.515 E3.3572
G1 X186.903 Y118.076 E3.36704
G1 X186.135 Y117.43 E3.37963
G1 X186.135 Y161.636 E3.93399
G1 X185.063 Y164.025 E3.96682
G1 X184.032 Y165.468 E3.98906
G1 X182.027 Y166.916 E4.02008
G1 X179.537 Y167.82 E4.0533
G1 X102.396 Y167.82 E5.02068
G1 X100.468 Y167.4 E5.04542
G1 X98.652 Y166.292 E5.0721
G1 X97.814 Y165.427 E5.0872
G1 X96.769 Y165.807 E5.10114
G1 X23.628 Y165.807 E6.01836
G1 X21.7 Y165.387 E6.0431
G1 X19.88 Y164.277 E6.06984
G1 X17.798 Y162.131 E6.10733
G1 X16.807 Y159.074 E6.14763
G1 X16.807 Y56.069 E7.43935
G1 X17.298 Y53.9 E7.46724
G1 X18.453 Y52.201 E7.49301
G1 X20.464 Y50.25 E7.52814
G1 X23.536 Y49.247 E7.56867
G0 F4800 X23.599 Y49.647
G1 F1080 X96.501 Y49.647 E8.48289
G1 X98.025 Y49.992 E8.50248
G1 X99.445 Y48.614 E8.5273
G1 X102.367 Y47.66 E8.56584
G1 X179.269 Y47.66 E9.53022
G1 X181.319 Y48.124 E9.55658
G1 X182.922 Y49.214 E9.58089
G1 X184.781 Y51.13 E9.61437
G1 X185.735 Y54.052 E9.65291
G1 X185.735 Y98.455 E10.20974
G1 X186.001 Y98.181 E10.21453
G1 X187.151 Y97.246 E10.23312
G1 X188.169 Y96.586 E10.24833
G1 X189.439 Y95.945 E10.26617
G1 X191.177 Y95.319 E10.28934
G1 X191.876 Y95.149 E10.29836
G1 X194.19 Y94.88 E10.32757
G1 X194.846 Y94.88 E10.3358
G1 X197.048 Y95.137 E10.3636
G1 X198.439 Y95.497 E10.38162
G1 X199.288 Y95.808 E10.39296
G1 X200.861 Y96.59 E10.41499
G1 X202.062 Y97.385 E10.43305
G1 X203.501 Y98.631 E10.45692
G1 X204.275 Y99.486 E10.47138
G1 X204.89 Y100.303 E10.48421
G1 X205.998 Y102.233 E10.51211
G1 X206.247 Y102.814 E10.52004
G1 X206.882 Y104.941 E10.54788
G1 X207.001 Y105.603 E10.55631
G1 X207.127 Y108.065 E10.58723
G1 X207.045 Y109.044 E10.59955
G1 X206.787 Y110.446 E10.61742
G1 X206.329 Y111.946 E10.63709
G1 X205.85 Y113.055 E10.65224
G1 X204.881 Y114.714 E10.67633
G1 X204.308 Y115.475 E10.68828
G1 X203.06 Y116.789 E10.71101
G1 X201.803 Y117.81 E10.73131
G1 X200.948 Y118.365 E10.7441
G1 X199.239 Y119.214 E10.76803
G1 X198.497 Y119.486 E10.77794
G1 X196.494 Y119.965 E10.80376
G1 X195.28 Y120.1 E10.81908
G1 X194.224 Y120.12 E10.83233
G1 X191.905 Y119.854 E10.8616
G1 X190.935 Y119.607 E10.87415
G1 X189.509 Y119.085 E10.89319
G1 X187.778 Y118.183 E10.91767
G1 X187.127 Y117.744 E10.92752
G1 X185.735 Y116.569 E10.95036
G1 X185.735 Y161.55 E11.51444
G1 X184.714 Y163.826 E11.54572
G1 X183.744 Y165.183 E11.56664
G1 X181.84 Y166.558 E11.59609
G1 X179.466 Y167.42 E11.62777
G1 X102.44 Y167.42 E12.5937
G1 X100.617 Y167.023 E12.6171
G1 X98.904 Y165.978 E12.64226
G1 X97.92 Y164.963 E12.65999
G1 X96.698 Y165.407 E12.67629
G1 X23.672 Y165.407 E13.59207
G1 X21.849 Y165.01 E13.61546
G1 X20.134 Y163.964 E13.64065
G1 X18.15 Y161.919 E13.67639
G1 X17.207 Y159.01 E13.71473
G1 X17.207 Y56.113 E15.0051
G1 X17.671 Y54.063 E15.03146
G1 X18.761 Y52.46 E15.05577
G1 X20.677 Y50.601 E15.08925
G1 X23.599 Y49.647 E15.12779
G0 F4800 X23.662 Y50.047
G1 F1080 X96.457 Y50.047 E16.04067
G1 X98.149 Y50.43 E16.06242
G1 X99.658 Y48.965 E16.0888
G1 X102.43 Y48.06 E16.12537
G1 X179.225 Y48.06 E17.0884
G1 X181.156 Y48.497 E17.11323
G1 X182.663 Y49.522 E17.13609
G1 X184.43 Y51.343 E17.16791
G1 X185.335 Y54.115 E17.20447
G1 X185.335 Y99.455 E17.77305
G1 X186.254 Y98.491 E17.78976
G1 X187.369 Y97.582 E17.8078
G1 X188.387 Y96.922 E17.82301
G1 X189.619 Y96.302 E17.84031
G1 X191.272 Y95.708 E17.86233
G1 X191.971 Y95.538 E17.87136
G1 X194.19 Y95.28 E17.89937
G1 X194.846 Y95.28 E17.9076
G1 X196.948 Y95.524 E17.93413
G1 X198.301 Y95.873 E17.95166
G1 X199.15 Y96.184 E17.96299
G1 X200.64 Y96.924 E17.98386
G1 X201.841 Y97.719 E18.00192
G1 X203.205 Y98.9 E18.02454
G1 X203.955 Y99.727 E18.03855
G1 X204.57 Y100.544 E18.05137
G1 X205.63 Y102.391 E18.07807
G1 X205.879 Y102.972 E18.086
G1 X206.488 Y105.012 E18.1127
G1 X206.607 Y105.674 E18.12113
G1 X206.728 Y108.032 E18.15074
G1 X206.646 Y109.011 E18.16306
G1 X206.404 Y110.329 E18.17987
G1 X205.946 Y111.829 E18.19954
G1 X205.483 Y112.896 E18.21412
G1 X204.561 Y114.473 E18.23703
G1 X203.988 Y115.234 E18.24898
G1 X202.807 Y116.479 E18.2705
G1 X201.585 Y117.474 E18.29026
G1 X200.73 Y118.029 E18.30304
G1 X199.101 Y118.838 E18.32585
G1 X198.359 Y119.11 E18.33576
G1 X196.45 Y119.567 E18.36038
G1 X195.236 Y119.702 E18.37569
G1 X194.217 Y119.72 E18.38847
G1 X192.003 Y119.466 E18.41642
G1 X191.073 Y119.231 E18.42845
G1 X189.647 Y118.709 E18.44749
G1 X188.002 Y117.851 E18.47076
G1 X187.351 Y117.412 E18.48061
G1 X186.013 Y116.282 E18.50257
G1 X185.335 Y115.554 E18.51504
G1 X185.335 Y161.464 E19.09077
G1 X184.363 Y163.63 E19.12054
G1 X183.458 Y164.897 E19.14007
G1 X181.652 Y166.201 E19.168
G1 X179.396 Y167.02 E19.1981
G1 X102.484 Y167.02 E20.16261
G1 X100.766 Y166.646 E20.18466
G1 X99.156 Y165.664 E20.2083
G1 X98.026 Y164.499 E20.22866
G1 X96.627 Y165.007 E20.24732
G1 X23.716 Y165.007 E21.16165
G1 X21.998 Y164.633 E21.1837
G1 X20.388 Y163.651 E21.20735
G1 X18.502 Y161.707 E21.24132
G1 X17.607 Y158.946 E21.27772
G1 X17.607 Y56.157 E22.56673
G1 X18.044 Y54.226 E22.59156
G1 X19.069 Y52.719 E22.61441
G1 X20.89 Y50.952 E22.64623
G1 X23.662 Y50.047 E22.6828
G0 F4800 X23.725 Y50.447
G1 F1080 X96.413 Y50.447 E23.59433
G1 X98.074 Y50.823 E23.61569
G1 X98.24 Y50.899 E23.61798
G1 X99.871 Y49.316 E23.64648
G1 X102.493 Y48.46 E23.68107
G1 X179.181 Y48.46 E24.64277
G1 X180.993 Y48.87 E24.66606
G1 X182.404 Y49.83 E24.68747
G1 X184.079 Y51.556 E24.71763
G1 X184.935 Y54.178 E24.75222
G1 X184.935 Y100.574 E25.33404
G1 X185.362 Y100.007 E25.34294
G1 X186.507 Y98.801 E25.36379
G1 X187.587 Y97.918 E25.38129
G1 X188.605 Y97.258 E25.3965
G1 X189.755 Y96.678 E25.41265
G1 X191.367 Y96.097 E25.43414
G1 X192.066 Y95.927 E25.44316
G1 X194.19 Y95.68 E25.46998
G1 X194.846 Y95.68 E25.47821
G1 X196.848 Y95.911 E25.50348
G1 X198.163 Y96.249 E25.5205
G1 X199.012 Y96.56 E25.53184
G1 X200.419 Y97.258 E25.55154
G1 X201.62 Y98.053 E25.5696
G1 X202.909 Y99.169 E25.59098
G1 X203.635 Y99.968 E25.60452
G1 X204.25 Y100.785 E25.61734
G1 X205.262 Y102.549 E25.64285
G1 X205.511 Y103.13 E25.65077
G1 X206.094 Y105.083 E25.67633
G1 X206.213 Y105.745 E25.68477
G1 X206.329 Y107.999 E25.71307
G1 X206.252 Y108.94 E25.72491
G1 X206.021 Y110.212 E25.74112
G1 X205.563 Y111.712 E25.76079
G1 X205.137 Y112.695 E25.77423
G1 X204.241 Y114.232 E25.79654
G1 X203.668 Y114.993 E25.80848
G1 X202.554 Y116.169 E25.8288
G1 X201.367 Y117.138 E25.84801
G1 X200.512 Y117.693 E25.86079
G1 X198.963 Y118.462 E25.88248
G1 X198.221 Y118.734 E25.89239
G1 X196.406 Y119.169 E25.9158
G1 X195.192 Y119.304 E25.93112
G1 X194.21 Y119.32 E25.94343
G1 X192.1 Y119.078 E25.97007
G1 X191.211 Y118.855 E25.98156
G1 X189.785 Y118.333 E26.0006
G1 X188.226 Y117.519 E26.02266
G1 X187.575 Y117.08 E26.0325
G1 X186.306 Y116.009 E26.05333
G1 X185.415 Y115.052 E26.06973
G1 X184.935 Y114.411 E26.07977
G1 X184.935 Y161.378 E26.66875
G1 X184.014 Y163.43 E26.69696
G1 X183.17 Y164.612 E26.71517
G1 X181.465 Y165.843 E26.74154
G1 X179.325 Y166.62 E26.77009
G1 X102.528 Y166.62 E27.73316
G1 X100.915 Y166.269 E27.75386
G1 X99.41 Y165.351 E27.77596
G1 X98.133 Y164.035 E27.79896
G1 X96.557 Y164.607 E27.81998
G1 X23.76 Y164.607 E28.73289
G1 X22.147 Y164.256 E28.75359
G1 X20.642 Y163.338 E28.77569
G1 X18.854 Y161.495 E28.8079
G1 X18.007 Y158.882 E28.84234
G1 X18.007 Y56.201 E30.13
G1 X18.417 Y54.389 E30.1533
G1 X19.377 Y52.978 E30.1747
G1 X21.103 Y51.303 E30.20486
G1 X23.725 Y50.447 E30.23945
G0 F4800 X23.788 Y50.847
G1 F1080 X21.316 Y51.654 E30.27206
G1 X19.685 Y53.237 E30.30056
G1 X18.79 Y54.552 E30.32051
G1 X18.407 Y56.245 E30.34228
G1 X18.407 Y158.818 E31.62858
G1 X19.206 Y161.283 E31.66108
G1 X20.896 Y163.025 E31.69151
G1 X22.296 Y163.879 E31.71208
G1 X23.804 Y164.207 E31.73143
G1 X96.486 Y164.207 E32.64289
G1 X98.24 Y163.57 E32.66629
G1 X99.664 Y165.038 E32.69194
G1 X101.064 Y165.892 E32.7125
G1 X102.572 Y166.22 E32.73186
G1 X179.255 Y166.22 E33.69349
G1 X181.277 Y165.486 E33.72047
G1 X182.882 Y164.327 E33.74529
G1 X183.665 Y163.231 E33.76218
G1 X184.535 Y161.292 E33.78883
G1 X184.535 Y112.997 E34.39447
G1 X185.041 Y113.884 E34.40728
G1 X185.708 Y114.779 E34.42128
G1 X186.599 Y115.736 E34.43767
G1 X187.799 Y116.748 E34.45736
G1 X188.45 Y117.187 E34.4672
G1 X189.923 Y117.957 E34.48805
G1 X191.349 Y118.479 E34.50709
G1 X192.197 Y118.69 E34.51805
G1 X194.204 Y118.92 E34.54338
G1 X195.148 Y118.906 E34.55522
G1 X196.362 Y118.771 E34.57054
G1 X198.083 Y118.358 E34.59273
G1 X198.825 Y118.086 E34.60265
G1 X200.294 Y117.357 E34.62321
G1 X201.149 Y116.802 E34.63599
G1 X202.264 Y115.893 E34.65403
G1 X203.348 Y114.752 E34.67377
G1 X203.921 Y113.991 E34.68572
G1 X204.77 Y112.535 E34.70685
G1 X205.18 Y111.595 E34.71971
G1 X205.638 Y110.095 E34.73938
G1 X205.858 Y108.869 E34.755
G1 X205.93 Y107.967 E34.76635
G1 X205.819 Y105.816 E34.79336
G1 X205.7 Y105.154 E34.80179
G1 X205.143 Y103.288 E34.82621
G1 X204.894 Y102.707 E34.83414
G1 X203.93 Y101.026 E34.85844
G1 X203.315 Y100.209 E34.87127
G1 X202.613 Y99.438 E34.88434
G1 X201.399 Y98.387 E34.90448
G1 X200.198 Y97.592 E34.92254
G1 X198.874 Y96.936 E34.94107
G1 X198.025 Y96.625 E34.95241
G1 X196.749 Y96.299 E34.96892
G1 X194.846 Y96.08 E34.99295
G1 X194.19 Y96.08 E35.00117
G1 X192.161 Y96.316 E35.02679
G1 X191.462 Y96.486 E35.03581
G1 X189.935 Y97.035 E35.05616
G1 X188.823 Y97.594 E35.07177
G1 X187.805 Y98.254 E35.08698
G1 X186.761 Y99.11 E35.10391
G1 X185.682 Y100.248 E35.12358
G1 X185.109 Y101.009 E35.13552
G1 X184.535 Y101.99 E35.14978
G1 X184.535 Y54.241 E35.74857
G1 X183.728 Y51.769 E35.78118
G1 X182.145 Y50.138 E35.80968
G1 X180.83 Y49.243 E35.82963
G1 X179.137 Y48.86 E35.85139
G1 X102.556 Y48.86 E36.81175
G1 X100.084 Y49.667 E36.84436
G1 X98.486 Y51.218 E36.87228
G1 X98.339 Y51.42 E36.87542
G1 X97.986 Y51.213 E36.88055
G1 X96.369 Y50.847 E36.90134
G1 X23.788 Y50.847 E37.81153
G0 F4800 X23.851 Y51.247
G1 F1080 X96.325 Y51.247 E38.72038
G1 X97.898 Y51.603 E38.74061
G1 X98.444 Y51.976 E38.7489
G1 X98.765 Y51.505 E38.75605
G1 X100.297 Y50.018 E38.78282
G1 X102.619 Y49.26 E38.81345
G1 X179.093 Y49.26 E39.77246
G1 X180.667 Y49.616 E39.7927
G1 X181.886 Y50.446 E39.8112
G1 X183.377 Y51.982 E39.83804
G1 X184.135 Y54.304 E39.86867
G1 X184.135 Y103.737 E40.48858
G1 X184.605 Y102.665 E40.50326
G1 X185.429 Y101.25 E40.52379
G1 X186.002 Y100.489 E40.53574
G1 X187.051 Y99.386 E40.55483
G1 X188.023 Y98.59 E40.57058
G1 X189.041 Y97.93 E40.5858
G1 X190.114 Y97.393 E40.60084
G1 X191.557 Y96.875 E40.62007
G1 X192.256 Y96.705 E40.62909
G1 X194.19 Y96.48 E40.65351
G1 X194.846 Y96.48 E40.66173
G1 X196.651 Y96.687 E40.68452
G1 X197.887 Y97.001 E40.70051
G1 X198.736 Y97.312 E40.71185
G1 X199.977 Y97.926 E40.72921
G1 X201.178 Y98.721 E40.74727
G1 X202.318 Y99.708 E40.76618
G1 X202.995 Y100.45 E40.77878
G1 X203.61 Y101.267 E40.7916
G1 X204.526 Y102.865 E40.8147
G1 X204.775 Y103.446 E40.82263
G1 X205.306 Y105.225 E40.84591
G1 X205.425 Y105.887 E40.85434
G1 X205.531 Y107.935 E40.88006
G1 X205.459 Y108.837 E40.89141
G1 X205.255 Y109.978 E40.90594
G1 X204.797 Y111.478 E40.92561
G1 X204.404 Y112.374 E40.93788
G1 X203.601 Y113.75 E40.95786
G1 X203.028 Y114.511 E40.96981
G1 X202.011 Y115.583 E40.98834
G1 X200.931 Y116.466 E41.00583
G1 X200.076 Y117.021 E41.01861
G1 X198.687 Y117.71 E41.03806
G1 X197.945 Y117.982 E41.04797
G1 X196.318 Y118.373 E41.06895
G1 X195.104 Y118.508 E41.08427
G1 X194.199 Y118.52 E41.09562
G1 X192.293 Y118.302 E41.11968
G1 X191.487 Y118.103 E41.13009
G1 X190.061 Y117.581 E41.14913
G1 X188.674 Y116.855 E41.16876
G1 X188.023 Y116.416 E41.17861
G1 X186.892 Y115.463 E41.19716
G1 X186.001 Y114.506 E41.21356
G1 X185.388 Y113.686 E41.22639
G1 X184.501 Y112.131 E41.24884
G1 X184.135 Y111.277 E41.2605
G1 X184.135 Y161.206 E41.88662
G1 X183.316 Y163.031 E41.91171
G1 X182.594 Y164.042 E41.92729
G1 X181.09 Y165.128 E41.95055
G1 X179.184 Y165.82 E41.97598
G1 X102.616 Y165.82 E42.93617
G1 X101.213 Y165.515 E42.95418
G1 X99.918 Y164.725 E42.9732
G1 X98.347 Y163.106 E43.00149
G1 X96.416 Y163.807 E43.02725
G1 X23.848 Y163.807 E43.93728
G1 X22.445 Y163.502 E43.95529
G1 X21.15 Y162.712 E43.97431
G1 X19.558 Y161.071 E44.00298
G1 X18.807 Y158.754 E44.03352
G1 X18.807 Y56.289 E45.31847
G1 X19.163 Y54.715 E45.33871
G1 X19.993 Y53.496 E45.3572
G1 X21.529 Y52.005 E45.38405
G1 X23.851 Y51.247 E45.41468
G0 F4800 X23.914 Y51.647
G1 F1080 X96.281 Y51.647 E46.32219
G1 X97.734 Y51.976 E46.34087
G1 X98.549 Y52.531 E46.35324
G1 X99.07 Y51.767 E46.36483
G1 X100.51 Y50.369 E46.39
G1 X102.682 Y49.66 E46.41865
G1 X179.049 Y49.66 E47.37632
G1 X180.504 Y49.989 E47.39503
G1 X181.627 Y50.754 E47.41207
G1 X183.026 Y52.195 E47.43726
G1 X183.735 Y54.367 E47.46591
G1 X183.735 Y161.12 E48.80463
G1 X182.967 Y162.832 E48.82816
G1 X182.306 Y163.757 E48.84242
G1 X180.903 Y164.77 E48.86412
G1 X179.113 Y165.42 E48.888
G1 X102.66 Y165.42 E49.84675
G1 X101.362 Y165.138 E49.86341
G1 X100.172 Y164.412 E49.88089
G1 X98.743 Y162.939 E49.90662
G1 X98.545 Y162.461 E49.91311
G1 X98.083 Y162.776 E49.92013
G1 X96.345 Y163.407 E49.94331
G1 X23.892 Y163.407 E50.8519
G1 X22.594 Y163.125 E50.86856
G1 X21.404 Y162.399 E50.88604
G1 X19.91 Y160.859 E50.91294
G1 X19.207 Y158.69 E50.94154
G1 X19.207 Y56.333 E52.22513
G1 X19.536 Y54.878 E52.24384
G1 X20.301 Y53.755 E52.26088
G1 X21.742 Y52.356 E52.28607
G1 X23.914 Y51.647 E52.31472
G0 F4800 X23.977 Y52.047
G1 F1080 X96.237 Y52.047 E53.22088
