;START_OF_HEADER
;HEADER_VERSION:0.1
;FLAVOR:Griffin
;GENERATOR.NAME:Cura_SteamEngine
;GENERATOR.VERSION:5.3.1
;GENERATOR.BUILD_DATE:2023-04-19
;TARGET_MACHINE.NAME:Ultimaker 3 Extended
;EXTRUDER_TRAIN.0.INITIAL_TEMPERATURE:200
;EXTRUDER_TRAIN.0.MATERIAL.VOLUME_USED:45473
;EXTRUDER_TRAIN.0.MATERIAL.GUID:506c9f0d-e3aa-4bd4-b2d2-23e2425b1aa9
;EXTRUDER_TRAIN.0.NOZZLE.DIAMETER:0.4
;EXTRUDER_TRAIN.0.NOZZLE.NAME:AA 0.4
;BUILD_PLATE.INITIAL_TEMPERATURE:60
;PRINT.TIME:28605
;PRINT.GROUPS:1
;PRINT.SIZE.MIN.X:9
;PRINT.SIZE.MIN.Y:6
;PRINT.SIZE.MIN.Z:0.2
;PRINT.SIZE.MAX.X:190.876
;PRINT.SIZE.MAX.Y:164.082
;PRINT.SIZE.MAX.Z:32.4
;SLICE_UUID:caf9730c-1169-4bf4-bdc0-12b30e58b2d7
;END_OF_HEADER
;Generated with Cura_SteamEngine 5.3.1
T0
M82 ;absolute extrusion mode

G92 E0
M109 S200
G0 F4800 X9 Y6 Z2
G280
G1 F1500 E-6.5
;LAYER_COUNT:163
;LAYER:0
M106 S255
M204 S1000
M205 X20 Y20
G1 F600 Z2.2
G0 F4800 X23.203 Y53.72 Z2.2
;TYPE:SKIRT
G1 F600 Z0.2
G1 F1500 E0
G1 F1080 X89.634 Y53.72 E0.83307
G1 X91.44 Y51.96 E0.86469
G1 X94.514 Y50.957 E0.90524
G1 X166.359 Y50.957 E1.80621
G1 X168.528 Y51.448 E1.83409
G1 X170.227 Y52.603 E1.85986
G1 X172.178 Y54.614 E1.89499
G1 X173.181 Y57.686 E1.93552
G1 X173.181 Y96.18 E2.41825
G1 X174.413 Y95.657 E2.43503
G1 X175.189 Y95.427 E2.44518
G1 X177.659 Y95.04 E2.47653
G1 X178.263 Y95.02 E2.48411
G1 X180.597 Y95.233 E2.5135
G1 X182.262 Y95.64 E2.535
G1 X183.067 Y95.935 E2.54575
G1 X185.101 Y96.988 E2.57447
G1 X186.02 Y97.632 E2.58854
G1 X187.502 Y98.974 E2.61362
G1 X188.074 Y99.631 E2.62454
G1 X189.432 Y101.691 E2.65548
G1 X189.875 Y102.615 E2.66833
G1 X190.596 Y104.82 E2.69742
G1 X190.723 Y105.469 E2.70572
G1 X190.876 Y108.165 E2.73958
G1 X190.807 Y109.005 E2.75015
G1 X190.404 Y110.994 E2.7756
G1 X190.085 Y111.956 E2.78831
G1 X189.088 Y114.028 E2.81715
G1 X188.644 Y114.712 E2.82737
G1 X187.372 Y116.236 E2.85227
G1 X185.809 Y117.619 E2.87844
G1 X184.911 Y118.225 E2.89202
G1 X183.306 Y119.052 E2.91466
G1 X181.915 Y119.558 E2.93323
G1 X180.594 Y119.866 E2.95024
G1 X178.264 Y120.075 E2.97957
G1 X177.66 Y120.056 E2.98715
G1 X175.263 Y119.677 E3.01758
G1 X173.968 Y119.27 E3.03461
G1 X173.181 Y118.916 E3.04543
G1 X173.181 Y157.202 E3.52555
G1 X172.545 Y159.629 E3.55701
G1 X171.103 Y161.653 E3.58818
G1 X169.758 Y162.819 E3.6105
G1 X166.91 Y164.082 E3.64957
G1 X94.606 Y164.082 E4.55629
G1 X92.678 Y163.662 E4.58103
G1 X90.858 Y162.552 E4.60777
G1 X89.623 Y161.28 E4.63
G1 X23.295 Y161.28 E5.46178
G1 X21.367 Y160.86 E5.48652
G1 X19.547 Y159.75 E5.51326
G1 X17.465 Y157.604 E5.55075
G1 X16.474 Y154.547 E5.59105
G1 X16.474 Y60.542 E6.76991
G1 X16.965 Y58.373 E6.7978
G1 X18.12 Y56.674 E6.82356
G1 X20.131 Y54.723 E6.8587
G1 X23.203 Y53.72 E6.89922
G0 F4800 X23.266 Y54.12
G1 F1080 X20.344 Y55.074 E6.93777
G1 X18.428 Y56.933 E6.97125
G1 X17.338 Y58.536 E6.99556
G1 X16.874 Y60.586 E7.02191
G1 X16.874 Y154.483 E8.19942
G1 X17.817 Y157.392 E8.23777
G1 X19.801 Y159.437 E8.2735
G1 X21.516 Y160.483 E8.29869
G1 X23.339 Y160.88 E8.32208
G1 X89.792 Y160.88 E9.15543
G1 X91.112 Y162.239 E9.17919
G1 X92.827 Y163.285 E9.20438
G1 X94.65 Y163.682 E9.22778
G1 X166.825 Y163.682 E10.13288
G1 X169.542 Y162.477 E10.17015
G1 X170.804 Y161.383 E10.1911
G1 X172.177 Y159.456 E10.22077
G1 X172.781 Y157.151 E10.25065
G1 X172.781 Y118.297 E10.73789
G1 X174.088 Y118.888 E10.75588
G1 X175.383 Y119.295 E10.7729
G1 X177.673 Y119.656 E10.80198
G1 X178.277 Y119.675 E10.80955
G1 X180.503 Y119.476 E10.83758
G1 X181.824 Y119.168 E10.85459
G1 X183.168 Y118.676 E10.87254
G1 X184.687 Y117.893 E10.89397
G1 X185.585 Y117.287 E10.90755
G1 X187.106 Y115.937 E10.93306
G1 X188.308 Y114.494 E10.95661
G1 X188.752 Y113.81 E10.96683
G1 X189.705 Y111.83 E10.99439
G1 X190.024 Y110.868 E11.0071
G1 X190.408 Y108.972 E11.03136
G1 X190.477 Y108.132 E11.04193
G1 X190.33 Y105.546 E11.07441
G1 X190.203 Y104.897 E11.0827
G1 X189.514 Y102.787 E11.11054
G1 X189.098 Y101.911 E11.1227
G1 X187.772 Y99.894 E11.15297
G1 X187.2 Y99.237 E11.1639
G1 X185.79 Y97.96 E11.18775
G1 X184.871 Y97.316 E11.20182
G1 X182.929 Y96.311 E11.22924
G1 X182.124 Y96.016 E11.24
G1 X180.56 Y95.631 E11.26019
G1 X178.276 Y95.42 E11.28896
G1 X177.672 Y95.44 E11.29654
G1 X175.303 Y95.811 E11.32661
G1 X174.527 Y96.041 E11.33676
G1 X172.781 Y96.786 E11.36056
G1 X172.781 Y57.749 E11.8501
G1 X171.827 Y54.827 E11.88865
G1 X169.968 Y52.911 E11.92213
G1 X168.365 Y51.821 E11.94644
G1 X166.315 Y51.357 E11.97279
G1 X94.577 Y51.357 E12.87241
G1 X91.654 Y52.311 E12.91097
G1 X89.797 Y54.12 E12.94348
G1 X23.266 Y54.12 E13.77781
G0 F4800 X23.329 Y54.52
G1 F1080 X89.995 Y54.52 E14.61382
G1 X90.112 Y54.366 E14.61625
G1 X91.868 Y52.662 E14.64693
G1 X94.64 Y51.757 E14.6835
G1 X166.271 Y51.757 E15.58178
G1 X168.202 Y52.194 E15.60661
G1 X169.709 Y53.219 E15.62946
G1 X171.476 Y55.04 E15.66128
G1 X172.381 Y57.812 E15.69785
G1 X172.381 Y97.514 E16.19573
G1 X173.054 Y97.105 E16.2056
G1 X174.641 Y96.425 E16.22726
G1 X175.417 Y96.195 E16.23741
G1 X177.685 Y95.84 E16.26619
G1 X178.289 Y95.82 E16.27377
G1 X180.465 Y96.02 E16.30118
G1 X181.986 Y96.392 E16.32081
G1 X182.791 Y96.687 E16.33156
G1 X184.641 Y97.644 E16.35768
G1 X185.56 Y98.288 E16.37176
G1 X186.898 Y99.5 E16.39439
G1 X187.47 Y100.157 E16.40532
G1 X188.763 Y102.13 E16.4349
G1 X189.152 Y102.957 E16.44636
G1 X189.81 Y104.974 E16.47297
G1 X189.937 Y105.623 E16.48126
G1 X190.078 Y108.099 E16.51236
G1 X190.009 Y108.939 E16.52293
G1 X189.644 Y110.742 E16.546
G1 X189.325 Y111.704 E16.55871
G1 X188.416 Y113.592 E16.58499
G1 X187.972 Y114.276 E16.59521
G1 X186.799 Y115.681 E16.61817
G1 X185.361 Y116.955 E16.64226
G1 X184.463 Y117.561 E16.65584
G1 X183.03 Y118.3 E16.67606
G1 X181.686 Y118.792 E16.69401
G1 X180.467 Y119.078 E16.70971
G1 X178.29 Y119.275 E16.73712
G1 X177.686 Y119.256 E16.7447
G1 X175.446 Y118.9 E16.77315
G1 X174.253 Y118.523 E16.78884
G1 X172.777 Y117.856 E16.80915
G1 X172.381 Y117.621 E16.81492
G1 X172.381 Y157.1 E17.31
G1 X171.809 Y159.283 E17.3383
G1 X170.505 Y161.113 E17.36648
G1 X169.326 Y162.135 E17.38605
G1 X166.74 Y163.282 E17.42152
G1 X94.694 Y163.282 E18.32501
G1 X92.976 Y162.908 E18.34706
G1 X91.366 Y161.926 E18.37071
G1 X89.962 Y160.48 E18.39598
G1 X23.383 Y160.48 E19.23091
G1 X21.665 Y160.106 E19.25296
G1 X20.055 Y159.124 E19.2766
G1 X18.169 Y157.18 E19.31057
G1 X17.274 Y154.419 E19.34697
G1 X17.274 Y60.63 E20.52312
G1 X17.711 Y58.699 E20.54795
G1 X18.736 Y57.192 E20.5708
G1 X20.557 Y55.425 E20.60262
G1 X23.329 Y54.52 E20.63919
G0 F4800 X23.392 Y54.92
G1 F1080 X20.77 Y55.776 E20.67378
G1 X19.044 Y57.451 E20.70394
G1 X18.084 Y58.862 E20.72534
G1 X17.674 Y60.674 E20.74864
G1 X17.674 Y154.355 E21.92343
G1 X18.521 Y156.968 E21.95788
G1 X20.309 Y158.811 E21.99008
G1 X21.814 Y159.729 E22.01219
G1 X23.427 Y160.08 E22.03289
G1 X90.132 Y160.08 E22.86939
G1 X91.62 Y161.613 E22.89618
G1 X93.125 Y162.531 E22.91829
G1 X94.738 Y162.882 E22.93899
G1 X166.655 Y162.882 E23.84086
G1 X169.11 Y161.793 E23.87454
G1 X170.206 Y160.843 E23.89273
G1 X171.441 Y159.11 E23.91941
G1 X171.981 Y157.049 E23.94613
G1 X171.981 Y116.916 E24.44941
G1 X172.942 Y117.491 E24.46346
G1 X174.418 Y118.158 E24.48377
G1 X175.566 Y118.518 E24.49886
G1 X177.699 Y118.856 E24.52594
G1 X178.303 Y118.875 E24.53352
G1 X180.43 Y118.68 E24.5603
G1 X181.548 Y118.416 E24.57471
G1 X182.892 Y117.924 E24.59266
G1 X184.239 Y117.229 E24.61166
G1 X185.137 Y116.623 E24.62525
G1 X186.533 Y115.382 E24.64867
G1 X187.636 Y114.058 E24.67028
G1 X188.08 Y113.374 E24.68051
G1 X188.945 Y111.578 E24.70551
G1 X189.264 Y110.616 E24.71822
G1 X189.61 Y108.906 E24.7401
G1 X189.679 Y108.066 E24.75067
G1 X189.544 Y105.7 E24.78039
G1 X189.417 Y105.051 E24.78868
G1 X188.772 Y103.081 E24.81467
G1 X188.402 Y102.301 E24.8255
G1 X187.168 Y100.42 E24.85371
G1 X186.596 Y99.763 E24.86463
G1 X185.33 Y98.616 E24.88606
G1 X184.411 Y97.972 E24.90013
G1 X182.653 Y97.063 E24.92495
G1 X181.848 Y96.768 E24.9357
G1 X180.428 Y96.418 E24.95404
G1 X178.302 Y96.22 E24.98082
G1 X177.698 Y96.24 E24.9884
G1 X175.531 Y96.579 E25.0159
G1 X174.755 Y96.809 E25.02605
G1 X173.262 Y97.447 E25.04641
G1 X171.981 Y98.225 E25.06521
G1 X171.981 Y57.875 E25.57121
G1 X171.125 Y55.253 E25.6058
G1 X169.45 Y53.527 E25.63596
G1 X168.039 Y52.567 E25.65736
G1 X166.227 Y52.157 E25.68066
G1 X94.703 Y52.157 E26.5776
G1 X92.081 Y53.013 E26.61219
G1 X90.391 Y54.653 E26.64172
G1 X90.201 Y54.92 E26.64583
G1 X23.392 Y54.92 E27.48364
G0 F4800 X23.455 Y55.32
G1 F1080 X89.992 Y55.32 E28.31804
G1 X90.361 Y55.393 E28.32275
G1 X90.67 Y54.94 E28.32963
G1 X92.294 Y53.364 E28.35801
G1 X94.766 Y52.557 E28.39062
G1 X166.183 Y52.557 E29.28621
G1 X167.876 Y52.94 E29.30798
G1 X169.191 Y53.835 E29.32793
G1 X170.774 Y55.466 E29.35643
G1 X171.581 Y57.938 E29.38904
G1 X171.581 Y99.007 E29.90406
G1 X171.938 Y98.719 E29.90981
G1 X173.47 Y97.789 E29.93229
G1 X174.869 Y97.193 E29.95136
G1 X175.645 Y96.963 E29.96151
G1 X177.711 Y96.64 E29.98773
G1 X178.315 Y96.62 E29.99531
G1 X180.333 Y96.807 E30.02072
G1 X181.71 Y97.144 E30.0385
G1 X182.515 Y97.439 E30.04925
G1 X184.181 Y98.3 E30.07277
G1 X185.1 Y98.944 E30.08684
G1 X186.294 Y100.026 E30.10705
G1 X186.866 Y100.683 E30.11797
G1 X188.067 Y102.52 E30.1455
G1 X188.392 Y103.206 E30.15502
G1 X189.024 Y105.128 E30.18039
G1 X189.151 Y105.777 E30.18868
G1 X189.28 Y108.033 E30.21702
G1 X189.211 Y108.873 E30.22759
G1 X188.884 Y110.49 E30.24828
G1 X188.565 Y111.452 E30.26099
G1 X187.744 Y113.156 E30.28471
G1 X187.3 Y113.84 E30.29493
G1 X186.226 Y115.126 E30.31594
G1 X184.913 Y116.291 E30.33796
G1 X184.015 Y116.897 E30.35154
G1 X182.754 Y117.548 E30.36934
G1 X181.41 Y118.04 E30.38729
G1 X180.339 Y118.29 E30.40108
G1 X178.316 Y118.475 E30.42655
G1 X177.712 Y118.456 E30.43413
G1 X175.685 Y118.136 E30.45987
G1 X174.583 Y117.793 E30.47434
G1 X173.107 Y117.126 E30.49465
G1 X172.383 Y116.694 E30.50522
G1 X171.581 Y116.071 E30.51796
G1 X171.581 Y156.998 E31.0312
G1 X171.073 Y158.937 E31.05633
G1 X169.907 Y160.573 E31.08153
G1 X168.894 Y161.451 E31.09834
G1 X166.57 Y162.482 E31.13022
G1 X94.782 Y162.482 E32.03047
G1 X93.274 Y162.154 E32.04982
G1 X91.874 Y161.3 E32.07039
G1 X90.302 Y159.68 E32.0987
G1 X23.471 Y159.68 E32.93678
G1 X21.963 Y159.352 E32.95613
G1 X20.563 Y158.498 E32.9767
G1 X18.873 Y156.756 E33.00714
G1 X18.074 Y154.291 E33.03963
G1 X18.074 Y60.718 E34.21307
G1 X18.457 Y59.025 E34.23484
G1 X19.352 Y57.71 E34.25479
G1 X20.983 Y56.127 E34.28329
G1 X23.455 Y55.32 E34.3159
G0 F4800 X23.518 Y55.72
G1 F1080 X89.992 Y55.72 E35.14951
G1 X90.538 Y55.843 E35.15653
G1 X90.977 Y55.2 E35.16629
G1 X92.507 Y53.715 E35.19303
G1 X94.829 Y52.957 E35.22366
G1 X166.139 Y52.957 E36.11791
G1 X167.713 Y53.313 E36.13815
G1 X168.932 Y54.143 E36.15664
G1 X170.423 Y55.679 E36.18349
G1 X171.181 Y58.001 E36.21412
G1 X171.181 Y99.843 E36.73883
G1 X172.189 Y99.031 E36.75507
G1 X173.677 Y98.131 E36.77687
G1 X174.983 Y97.577 E36.79466
G1 X175.759 Y97.347 E36.80481
G1 X177.724 Y97.04 E36.82975
G1 X178.328 Y97.02 E36.83733
G1 X180.296 Y97.205 E36.86212
G1 X181.572 Y97.52 E36.8786
G1 X182.377 Y97.815 E36.88935
G1 X183.951 Y98.628 E36.91157
G1 X184.87 Y99.272 E36.92564
G1 X185.992 Y100.289 E36.94463
G1 X186.564 Y100.946 E36.95556
G1 X187.706 Y102.693 E36.98173
G1 X188.012 Y103.332 E36.99062
G1 X188.631 Y105.205 E37.01535
G1 X188.758 Y105.854 E37.02365
G1 X188.881 Y108 E37.0506
G1 X188.812 Y108.84 E37.06117
G1 X188.504 Y110.364 E37.08067
G1 X188.185 Y111.326 E37.09338
G1 X187.408 Y112.938 E37.11582
G1 X186.964 Y113.622 E37.12605
G1 X185.96 Y114.827 E37.14572
G1 X184.689 Y115.959 E37.16706
G1 X183.791 Y116.565 E37.18065
G1 X182.616 Y117.172 E37.19723
G1 X181.272 Y117.664 E37.21518
G1 X180.302 Y117.892 E37.22767
G1 X178.329 Y118.075 E37.25252
G1 X177.725 Y118.056 E37.2601
G1 X175.803 Y117.754 E37.2845
G1 X174.748 Y117.428 E37.29835
G1 X173.272 Y116.761 E37.31866
G1 X172.589 Y116.351 E37.32865
G1 X171.181 Y115.251 E37.35105
G1 X171.181 Y156.947 E37.87394
G1 X170.705 Y158.764 E37.89749
G1 X169.608 Y160.303 E37.92119
G1 X168.678 Y161.109 E37.93663
G1 X166.485 Y162.082 E37.96671
G1 X94.826 Y162.082 E38.86534
G1 X93.423 Y161.777 E38.88335
G1 X92.128 Y160.987 E38.90237
G1 X90.667 Y159.481 E38.92868
G1 X90.512 Y159.177 E38.93296
G1 X90.167 Y159.28 E38.93748
G1 X23.515 Y159.28 E39.77332
G1 X22.112 Y158.975 E39.79132
G1 X20.817 Y158.185 E39.81035
G1 X19.225 Y156.544 E39.83902
G1 X18.474 Y154.227 E39.86956
G1 X18.474 Y60.762 E41.04165
G1 X18.83 Y59.188 E41.06189
G1 X19.66 Y57.969 E41.08038
G1 X21.196 Y56.478 E41.10722
G1 X23.518 Y55.72 E41.13785
G0 F4800 X23.581 Y56.12
G1 F1080 X89.948 Y56.12 E41.97012
G1 X90.715 Y56.293 E41.97998
G1 X91.282 Y55.462 E41.9926
G1 X92.72 Y54.066 E42.01773
G1 X94.892 Y53.357 E42.04638
G1 X166.095 Y53.357 E42.93929
G1 X167.55 Y53.686 E42.958
G1 X168.673 Y54.451 E42.97504
G1 X170.072 Y55.892 E43.00023
G1 X170.781 Y58.064 E43.02888
G1 X170.781 Y100.859 E43.56554
G1 X171.608 Y100.013 E43.58038
G1 X172.44 Y99.343 E43.59378
G1 X173.834 Y98.499 E43.61421
G1 X175.097 Y97.961 E43.63143
G1 X175.873 Y97.731 E43.64158
G1 X177.737 Y97.44 E43.66524
G1 X178.341 Y97.42 E43.67281
G1 X180.201 Y97.594 E43.69624
G1 X181.434 Y97.896 E43.71216
G1 X182.239 Y98.191 E43.72291
G1 X183.721 Y98.956 E43.74383
G1 X184.64 Y99.6 E43.7579
G1 X185.69 Y100.552 E43.77567
G1 X186.262 Y101.209 E43.7866
G1 X187.345 Y102.866 E43.81142
G1 X187.651 Y103.505 E43.82031
G1 X188.238 Y105.282 E43.84378
G1 X188.365 Y105.931 E43.85207
G1 X188.482 Y107.967 E43.87764
G1 X188.413 Y108.807 E43.88821
G1 X188.124 Y110.238 E43.90652
G1 X187.805 Y111.2 E43.91923
G1 X187.072 Y112.72 E43.94039
G1 X186.628 Y113.404 E43.95062
G1 X185.653 Y114.57 E43.96968
G1 X184.465 Y115.627 E43.98962
G1 X183.567 Y116.233 E44.0032
G1 X182.478 Y116.796 E44.01858
G1 X181.134 Y117.288 E44.03653
G1 X180.264 Y117.494 E44.04774
G1 X178.342 Y117.675 E44.07195
G1 X177.738 Y117.656 E44.07953
G1 X175.92 Y117.371 E44.1026
G1 X174.913 Y117.063 E44.11581
G1 X173.437 Y116.396 E44.13612
G1 X172.796 Y116.009 E44.14551
G1 X171.628 Y115.097 E44.16409
G1 X170.781 Y114.221 E44.17937
G1 X170.781 Y156.896 E44.71453
G1 X170.337 Y158.591 E44.73651
G1 X169.309 Y160.033 E44.75871
G1 X168.462 Y160.767 E44.77277
G1 X166.4 Y161.682 E44.80106
G1 X94.87 Y161.682 E45.69807
G1 X93.572 Y161.4 E45.71473
G1 X92.382 Y160.674 E45.73221
G1 X90.954 Y159.202 E45.75793
G1 X90.737 Y158.666 E45.76518
G1 X90.167 Y158.88 E45.77282
G1 X23.559 Y158.88 E46.6081
G1 X22.261 Y158.598 E46.62476
G1 X21.071 Y157.872 E46.64224
G1 X19.577 Y156.332 E46.66915
G1 X18.874 Y154.163 E46.69774
G1 X18.874 Y60.806 E47.86847
G1 X19.203 Y59.351 E47.88718
G1 X19.968 Y58.228 E47.90422
G1 X21.409 Y56.829 E47.92941
G1 X23.581 Y56.12 E47.95806
G0 F4800 X23.644 Y56.52
G1 F1080 X89.904 Y56.52 E48.78898
G1 X90.892 Y56.743 E48.80169
G1 X91.587 Y55.724 E48.81715
G1 X92.933 Y54.417 E48.84068
G1 X94.955 Y53.757 E48.86735
G1 X166.051 Y53.757 E49.75892
G1 X167.387 Y54.059 E49.7761
G1 X168.414 Y54.759 E49.79169
G1 X169.721 Y56.105 E49.81522
G1 X170.381 Y58.127 E49.84189
G1 X170.381 Y102.016 E50.39227
G1 X170.977 Y101.23 E50.40464
G1 X171.859 Y100.325 E50.42049
G1 X172.691 Y99.655 E50.43389
G1 X174.04 Y98.842 E50.45364
G1 X175.211 Y98.345 E50.46959
G1 X175.987 Y98.115 E50.47974
G1 X177.75 Y97.84 E50.50212
G1 X178.354 Y97.82 E50.50969
G1 X180.107 Y97.983 E50.53177
G1 X181.296 Y98.272 E50.54712
G1 X182.101 Y98.567 E50.55787
G1 X183.491 Y99.284 E50.57748
G1 X184.41 Y99.928 E50.59156
G1 X185.388 Y100.815 E50.60811
G1 X185.96 Y101.472 E50.61904
G1 X186.984 Y103.039 E50.64251
G1 X187.29 Y103.678 E50.6514
G1 X187.845 Y105.359 E50.6736
G1 X187.972 Y106.008 E50.68189
G1 X188.083 Y107.934 E50.70608
