;START_OF_HEADER
;HEADER_VERSION:0.1
;FLAVOR:Griffin
;GENERATOR.NAME:Cura_SteamEngine
;GENERATOR.VERSION:5.3.1
;GENERATOR.BUILD_DATE:2023-04-19
;TARGET_MACHINE.NAME:Ultimaker 3 Extended
;EXTRUDER_TRAIN.0.INITIAL_TEMPERATURE:205
;EXTRUDER_TRAIN.0.MATERIAL.VOLUME_USED:64013
;EXTRUDER_TRAIN.0.MATERIAL.GUID:506c9f0d-e3aa-4bd4-b2d2-23e2425b1aa9
;EXTRUDER_TRAIN.0.NOZZLE.DIAMETER:0.4
;EXTRUDER_TRAIN.0.NOZZLE.NAME:AA 0.4
;BUILD_PLATE.INITIAL_TEMPERATURE:60
;PRINT.TIME:20170
;PRINT.GROUPS:1
;PRINT.SIZE.MIN.X:9
;PRINT.SIZE.MIN.Y:6
;PRINT.SIZE.MIN.Z:0.2
;PRINT.SIZE.MAX.X:169.271
;PRINT.SIZE.MAX.Y:199.729
;PRINT.SIZE.MAX.Z:33
;SLICE_UUID:853ca262-2651-4ee6-bf19-4262381cc709
;END_OF_HEADER
;Generated with Cura_SteamEngine 5.3.1
T0
M82 ;absolute extrusion mode

G92 E0
M109 S205
G0 F15000 X9 Y6 Z2
G280
G1 F1500 E-6.5
;LAYER_COUNT:165
;LAYER:0
M106 S255
M204 S1000
M205 X20 Y20
G1 F600 Z2.2
G0 F15000 X58.154 Y15.77 Z2.2
;TYPE:SKIRT
G1 F600 Z0.2
G1 F1500 E0
G1 F1800 X58.669 Y14.026 E0.0228
G1 X59.118 Y13.153 E0.03511
G1 X60.685 Y11.53 E0.06341
G1 X62.142 Y10.559 E0.08536
G1 X64.328 Y9.915 E0.11394
G1 X159.259 Y9.915 E1.30441
G1 X161.003 Y10.43 E1.32722
G1 X161.876 Y10.879 E1.33953
G1 X163.499 Y12.446 E1.36782
G1 X164.47 Y13.903 E1.38977
G1 X165.114 Y16.089 E1.41835
G1 X165.114 Y84.602 E2.27753
G1 X164.663 Y86.532 E2.30239
G1 X164.508 Y86.816 E2.30644
G1 X165.193 Y87.026 E2.31543
G1 X166.033 Y87.458 E2.32727
G1 X167.656 Y89.025 E2.35556
G1 X168.627 Y90.482 E2.37752
G1 X169.271 Y92.668 E2.4061
G1 X169.271 Y166.294 E3.3294
G1 X168.527 Y168.414 E3.35757
G1 X167.539 Y169.902 E3.37997
G1 X165.697 Y171.425 E3.40994
G1 X163.166 Y172.254 E3.44334
G1 X143.001 Y172.254 E3.69622
G1 X143.343 Y172.666 E3.70293
G1 X144.927 Y175.264 E3.74109
G1 X145.683 Y177.055 E3.76547
G1 X146.46 Y179.977 E3.80339
G1 X146.671 Y182.409 E3.834
G1 X146.62 Y184.137 E3.85568
G1 X145.997 Y187.521 E3.89883
G1 X145.509 Y188.951 E3.91778
G1 X143.974 Y191.951 E3.96004
G1 X142.93 Y193.4 E3.98243
G1 X140.817 Y195.593 E4.02062
G1 X139.433 Y196.671 E4.04262
G1 X136.496 Y198.32 E4.08486
G1 X134.929 Y198.914 E4.10588
G1 X132.026 Y199.59 E4.14326
G1 X129.228 Y199.729 E4.17839
G1 X127.699 Y199.617 E4.19761
G1 X124.321 Y198.866 E4.24101
G1 X122.96 Y198.345 E4.25928
G1 X119.973 Y196.671 E4.30222
G1 X118.589 Y195.593 E4.32422
G1 X116.438 Y193.356 E4.36314
G1 X115.463 Y192.003 E4.38405
G1 X114.703 Y190.549 E4.40463
G1 X114.16 Y191.534 E4.41873
G1 X112.816 Y193.14 E4.44499
G1 X110.822 Y194.981 E4.47903
G1 X108.786 Y196.218 E4.5089
G1 X106.153 Y197.313 E4.54466
G1 X104.11 Y197.821 E4.57106
G1 X101.854 Y198.011 E4.59945
G1 X99.215 Y197.783 E4.63267
G1 X96.804 Y197.221 E4.66372
G1 X94.62 Y196.246 E4.69371
G1 X92.269 Y194.751 E4.72865
G1 X90.726 Y193.333 E4.75493
G1 X89.166 Y191.486 E4.78525
G1 X88.046 Y189.519 E4.81363
G1 X87.012 Y186.969 E4.84814
G1 X86.533 Y184.253 E4.88272
G1 X86.459 Y182.723 E4.90193
G1 X86.724 Y179.747 E4.9394
G1 X87.508 Y177.239 E4.97235
G1 X88.5 Y175.169 E5.00114
G1 X89.871 Y173.097 E5.0323
G1 X90.724 Y172.254 E5.04733
G1 X63.362 Y172.254 E5.39046
G1 X61.611 Y171.737 E5.41336
G1 X60.638 Y171.189 E5.42736
G1 X59.121 Y169.717 E5.45387
G1 X58.155 Y168.268 E5.47571
G1 X57.511 Y166.08 E5.50431
G1 X57.511 Y92.349 E6.42893
G1 X58.026 Y90.605 E6.45173
G1 X58.475 Y89.732 E6.46404
G1 X59.787 Y88.372 E6.48774
G1 X58.798 Y86.889 E6.51009
G1 X58.154 Y84.701 E6.53869
G1 X58.154 Y15.77 E7.40311
G0 F15000 X58.554 Y15.829
G1 F1800 X59.042 Y14.176 E7.42473
G1 X59.447 Y13.389 E7.43583
G1 X60.943 Y11.839 E7.46284
G1 X62.313 Y10.926 E7.48349
G1 X64.387 Y10.315 E7.5106
G1 X159.2 Y10.315 E8.69959
G1 X160.853 Y10.803 E8.72121
G1 X161.64 Y11.208 E8.73231
G1 X163.19 Y12.704 E8.75932
G1 X164.103 Y14.074 E8.77997
G1 X164.714 Y16.148 E8.80708
G1 X164.714 Y84.554 E9.66492
G1 X164.273 Y86.441 E9.68922
G1 X163.885 Y87.05 E9.69827
G1 X165.01 Y87.382 E9.71298
G1 X165.797 Y87.787 E9.72408
G1 X167.347 Y89.283 E9.7511
G1 X168.26 Y90.653 E9.77174
G1 X168.871 Y92.727 E9.79886
G1 X168.871 Y166.228 E10.72059
G1 X168.167 Y168.234 E10.74725
G1 X167.239 Y169.631 E10.76828
G1 X165.5 Y171.069 E10.79658
G1 X163.103 Y171.854 E10.82821
G1 X142.148 Y171.854 E11.09099
G1 X143.035 Y172.922 E11.1084
G1 X144.559 Y175.42 E11.14509
G1 X145.296 Y177.158 E11.16877
G1 X146.064 Y180.046 E11.20624
G1 X146.272 Y182.444 E11.23643
G1 X146.22 Y184.125 E11.25752
G1 X145.618 Y187.392 E11.29918
G1 X145.13 Y188.822 E11.31813
G1 X143.649 Y191.717 E11.3589
G1 X142.605 Y193.166 E11.3813
G1 X140.571 Y195.277 E11.41806
G1 X139.187 Y196.355 E11.44006
G1 X136.301 Y197.971 E11.48154
G1 X134.838 Y198.524 E11.50115
G1 X131.97 Y199.192 E11.53808
G1 X129.208 Y199.329 E11.57276
G1 X127.729 Y199.218 E11.59136
G1 X124.464 Y198.492 E11.63331
G1 X123.103 Y197.971 E11.65158
G1 X120.219 Y196.355 E11.69304
G1 X118.835 Y195.277 E11.71504
G1 X116.763 Y193.122 E11.75253
G1 X115.788 Y191.769 E11.77344
G1 X114.714 Y189.703 E11.80264
G1 X113.83 Y191.304 E11.82558
G1 X112.509 Y192.883 E11.85139
G1 X110.582 Y194.659 E11.88426
G1 X108.578 Y195.876 E11.91366
G1 X106.056 Y196.925 E11.94791
G1 X104.076 Y197.422 E11.97351
G1 X101.82 Y197.612 E12.0019
G1 X99.306 Y197.393 E12.03355
G1 X96.928 Y196.839 E12.06417
G1 X94.835 Y195.908 E12.09289
G1 X92.514 Y194.432 E12.12739
G1 X90.997 Y193.038 E12.15322
G1 X89.496 Y191.256 E12.18244
G1 X88.394 Y189.321 E12.21037
G1 X87.399 Y186.858 E12.24368
G1 X86.933 Y184.234 E12.2771
G1 X86.859 Y182.704 E12.29631
G1 X87.118 Y179.827 E12.33253
G1 X87.869 Y177.412 E12.36425
G1 X88.861 Y175.342 E12.39303
G1 X90.18 Y173.354 E12.42295
G1 X91.699 Y171.854 E12.44972
G1 X63.421 Y171.854 E12.80434
G1 X61.764 Y171.365 E12.82601
G1 X60.882 Y170.868 E12.8387
G1 X59.43 Y169.459 E12.86407
G1 X58.522 Y168.097 E12.8846
G1 X57.911 Y166.021 E12.91174
G1 X57.911 Y92.408 E13.83487
G1 X58.399 Y90.755 E13.85649
G1 X58.804 Y89.968 E13.86759
G1 X60.359 Y88.356 E13.89567
G1 X60.049 Y88.043 E13.9012
G1 X59.165 Y86.718 E13.92117
G1 X58.554 Y84.642 E13.94831
G1 X58.554 Y15.829 E14.81125
G0 F15000 X58.954 Y15.888
G1 F1800 X59.415 Y14.326 E14.83168
G1 X59.776 Y13.625 E14.84156
G1 X61.201 Y12.148 E14.8673
G1 X62.484 Y11.293 E14.88664
G1 X64.446 Y10.715 E14.91228
G1 X159.141 Y10.715 E16.0998
G1 X160.703 Y11.176 E16.12022
G1 X161.404 Y11.537 E16.13011
G1 X162.881 Y12.962 E16.15584
G1 X163.736 Y14.245 E16.17518
G1 X164.314 Y16.207 E16.20083
G1 X164.314 Y84.506 E17.05732
G1 X163.883 Y86.35 E17.08107
G1 X163.242 Y87.278 E17.09521
G1 X164.86 Y87.755 E17.11637
G1 X165.561 Y88.116 E17.12626
G1 X167.038 Y89.541 E17.15199
G1 X167.893 Y90.824 E17.17133
G1 X168.471 Y92.786 E17.19698
G1 X168.471 Y166.162 E18.11714
G1 X167.807 Y168.054 E18.14229
G1 X166.939 Y169.36 E18.16195
G1 X165.304 Y170.712 E18.18856
G1 X163.039 Y171.454 E18.21844
G1 X141.22 Y171.454 E18.49206
G1 X141.534 Y171.741 E18.4974
G1 X142.727 Y173.178 E18.52082
G1 X144.191 Y175.577 E18.55606
G1 X144.909 Y177.261 E18.57902
G1 X145.668 Y180.115 E18.61605
G1 X145.873 Y182.479 E18.64581
G1 X145.82 Y184.112 E18.6663
G1 X145.239 Y187.263 E18.70648
G1 X144.751 Y188.693 E18.72543
G1 X143.324 Y191.483 E18.76473
G1 X142.28 Y192.932 E18.78712
G1 X140.325 Y194.961 E18.82246
G1 X138.941 Y196.039 E18.84446
G1 X136.159 Y197.597 E18.88444
G1 X134.747 Y198.134 E18.90339
G1 X131.909 Y198.795 E18.93993
G1 X129.238 Y198.93 E18.97347
G1 X127.759 Y198.819 E18.99207
G1 X124.607 Y198.118 E19.03256
G1 X123.246 Y197.597 E19.05084
G1 X120.465 Y196.039 E19.09081
G1 X119.081 Y194.961 E19.11281
G1 X117.088 Y192.888 E19.14887
G1 X116.113 Y191.535 E19.16978
G1 X114.725 Y188.855 E19.20763
G1 X113.5 Y191.074 E19.23942
G1 X112.202 Y192.626 E19.26479
G1 X110.342 Y194.336 E19.29648
G1 X108.37 Y195.534 E19.32541
G1 X105.958 Y196.537 E19.35817
G1 X104.042 Y197.023 E19.38296
G1 X101.786 Y197.213 E19.41135
G1 X99.397 Y197.003 E19.44142
G1 X97.055 Y196.457 E19.47158
G1 X95.05 Y195.57 E19.49907
G1 X92.759 Y194.113 E19.53312
G1 X91.268 Y192.743 E19.55851
G1 X89.828 Y191.03 E19.58658
G1 X88.742 Y189.123 E19.6141
G1 X87.786 Y186.749 E19.64619
G1 X87.333 Y184.215 E19.67847
G1 X87.259 Y182.685 E19.69768
G1 X87.512 Y179.906 E19.73268
G1 X88.23 Y177.585 E19.76314
G1 X89.222 Y175.515 E19.79193
G1 X90.491 Y173.61 E19.82063
G1 X92.309 Y171.814 E19.85268
G1 X92.796 Y171.454 E19.86028
G1 X63.48 Y171.454 E20.22791
G1 X61.921 Y170.994 E20.24829
G1 X61.124 Y170.545 E20.25976
G1 X59.739 Y169.201 E20.28397
G1 X58.889 Y167.926 E20.30318
G1 X58.311 Y165.962 E20.32886
G1 X58.311 Y92.467 E21.25051
G1 X58.772 Y90.905 E21.27093
G1 X59.133 Y90.204 E21.28082
G1 X60.528 Y88.758 E21.30602
G1 X61.006 Y88.429 E21.3133
G1 X60.382 Y87.821 E21.32422
G1 X59.532 Y86.547 E21.34343
G1 X58.954 Y84.583 E21.3691
G1 X58.954 Y15.888 E22.23056
G0 F15000 X59.354 Y15.947
G1 F1800 X59.799 Y14.439 E22.25028
G1 X60.105 Y13.86 E22.25849
G1 X61.459 Y12.457 E22.28294
G1 X62.655 Y11.66 E22.30097
G1 X64.505 Y11.115 E22.32515
G1 X159.082 Y11.115 E23.51118
G1 X160.59 Y11.56 E23.5309
G1 X161.169 Y11.866 E23.53911
G1 X162.572 Y13.22 E23.56356
G1 X163.369 Y14.416 E23.58159
G1 X163.914 Y16.266 E23.60577
G1 X163.914 Y84.458 E24.46092
G1 X163.51 Y86.187 E24.48319
G1 X162.468 Y87.694 E24.50617
G1 X163.239 Y87.694 E24.51584
G1 X164.747 Y88.139 E24.53555
G1 X165.326 Y88.445 E24.54376
G1 X166.729 Y89.799 E24.56822
G1 X167.526 Y90.995 E24.58624
G1 X168.071 Y92.845 E24.61042
G1 X168.071 Y166.096 E25.52902
G1 X167.448 Y167.872 E25.55262
G1 X166.638 Y169.09 E25.57097
G1 X165.108 Y170.355 E25.59586
G1 X162.975 Y171.054 E25.62401
G1 X140.175 Y171.054 E25.90993
G1 X141.226 Y171.997 E25.92764
G1 X142.419 Y173.434 E25.95106
G1 X143.849 Y175.785 E25.98557
G1 X144.522 Y177.364 E26.00709
G1 X145.272 Y180.184 E26.04368
G1 X145.474 Y182.514 E26.07301
G1 X145.42 Y184.098 E26.09289
G1 X144.86 Y187.134 E26.1316
G1 X144.372 Y188.564 E26.15055
G1 X142.999 Y191.249 E26.18837
G1 X141.955 Y192.698 E26.21077
G1 X140.079 Y194.645 E26.24467
G1 X138.695 Y195.723 E26.26667
G1 X136.016 Y197.223 E26.30517
G1 X134.656 Y197.744 E26.32344
G1 X131.848 Y198.398 E26.35959
G1 X129.268 Y198.531 E26.39199
G1 X127.789 Y198.42 E26.41059
G1 X124.75 Y197.744 E26.44963
G1 X123.389 Y197.223 E26.46791
G1 X120.711 Y195.723 E26.5064
G1 X119.327 Y194.645 E26.5284
G1 X117.413 Y192.654 E26.56303
G1 X116.438 Y191.301 E26.58395
G1 X115.103 Y188.725 E26.62033
G1 X114.774 Y187.748 E26.63326
G1 X114.551 Y188.343 E26.64123
G1 X113.17 Y190.844 E26.67705
G1 X111.895 Y192.369 E26.70198
G1 X110.102 Y194.013 E26.73249
G1 X108.162 Y195.192 E26.76096
G1 X105.86 Y196.149 E26.79222
G1 X103.977 Y196.627 E26.81658
G1 X101.787 Y196.811 E26.84414
G1 X99.488 Y196.613 E26.87308
G1 X97.179 Y196.075 E26.90281
G1 X95.265 Y195.232 E26.92904
G1 X93.004 Y193.794 E26.96264
G1 X91.539 Y192.448 E26.98759
G1 X90.16 Y190.804 E27.0145
G1 X89.09 Y188.925 E27.04161
G1 X88.173 Y186.64 E27.07249
G1 X87.733 Y184.196 E27.10363
G1 X87.659 Y182.666 E27.12284
G1 X87.906 Y179.984 E27.15662
G1 X88.591 Y177.758 E27.18582
G1 X89.583 Y175.688 E27.21461
G1 X90.801 Y173.866 E27.24209
G1 X92.547 Y172.136 E27.27291
G1 X94.011 Y171.054 E27.29574
G1 X63.539 Y171.054 E27.67787
G1 X62.078 Y170.623 E27.69698
G1 X61.366 Y170.222 E27.70722
G1 X60.048 Y168.943 E27.73025
G1 X59.256 Y167.755 E27.74816
G1 X58.711 Y165.903 E27.77237
G1 X58.711 Y92.526 E28.69254
G1 X59.156 Y91.018 E28.71226
G1 X59.462 Y90.439 E28.72047
G1 X60.816 Y89.036 E28.74492
G1 X61.641 Y88.487 E28.75735
G1 X60.691 Y87.564 E28.77396
G1 X59.899 Y86.376 E28.79187
G1 X59.354 Y84.524 E28.81608
G1 X59.354 Y15.947 E29.67606
G0 F15000 X59.754 Y16.006
G1 F1800 X60.183 Y14.552 E29.69507
G1 X60.433 Y14.097 E29.70158
G1 X61.717 Y12.766 E29.72477
G1 X62.826 Y12.027 E29.74148
G1 X64.564 Y11.515 E29.7642
G1 X159.023 Y11.515 E30.94876
G1 X160.477 Y11.944 E30.96777
G1 X160.932 Y12.194 E30.97428
G1 X162.263 Y13.478 E30.99747
G1 X163.002 Y14.587 E31.01418
G1 X163.514 Y16.325 E31.0369
G1 X163.514 Y84.41 E31.89071
G1 X163.137 Y86.024 E31.9115
G1 X161.956 Y87.732 E31.93754
G1 X161.453 Y88.094 E31.94531
G1 X163.18 Y88.094 E31.96697
G1 X164.634 Y88.523 E31.98598
G1 X165.089 Y88.773 E31.99249
G1 X166.42 Y90.057 E32.01568
G1 X167.159 Y91.166 E32.03239
G1 X167.671 Y92.904 E32.05511
G1 X167.671 Y166.03 E32.97214
G1 X167.089 Y167.69 E32.9942
G1 X166.337 Y168.82 E33.01122
G1 X164.912 Y169.998 E33.03441
G1 X162.911 Y170.654 E33.06082
G1 X139.125 Y170.654 E33.3591
G1 X140.918 Y172.253 E33.38923
G1 X142.111 Y173.69 E33.41265
G1 X143.481 Y175.943 E33.44572
G1 X144.135 Y177.467 E33.46651
G1 X144.876 Y180.253 E33.50267
G1 X145.075 Y182.549 E33.53157
G1 X145.02 Y184.084 E33.55083
G1 X144.481 Y187.005 E33.58808
G1 X143.993 Y188.435 E33.60702
G1 X142.674 Y191.015 E33.64336
G1 X141.63 Y192.464 E33.66576
G1 X139.833 Y194.329 E33.69824
G1 X138.449 Y195.407 E33.72024
G1 X135.873 Y196.849 E33.75726
G1 X134.513 Y197.37 E33.77552
G1 X131.788 Y198.001 E33.8106
G1 X129.298 Y198.132 E33.84187
G1 X127.819 Y198.021 E33.86046
G1 X124.893 Y197.37 E33.89805
G1 X123.532 Y196.849 E33.91633
G1 X120.957 Y195.407 E33.95334
G1 X119.573 Y194.329 E33.97534
G1 X117.738 Y192.42 E34.00855
G1 X116.763 Y191.067 E34.02946
G1 X115.482 Y188.597 E34.06435
G1 X114.85 Y186.72 E34.08919
G1 X114.784 Y186.355 E34.09384
G1 X114.666 Y186.896 E34.10078
G1 X114.176 Y188.202 E34.11828
G1 X112.839 Y190.616 E34.15288
G1 X111.588 Y192.112 E34.17734
G1 X109.862 Y193.69 E34.20666
G1 X107.954 Y194.85 E34.23467
G1 X105.762 Y195.761 E34.26443
G1 X103.912 Y196.231 E34.28837
G1 X101.754 Y196.412 E34.31553
G1 X99.579 Y196.223 E34.34291
G1 X97.303 Y195.693 E34.37221
G1 X95.48 Y194.894 E34.39717
G1 X93.249 Y193.475 E34.43033
G1 X91.81 Y192.153 E34.45483
G1 X90.49 Y190.574 E34.48064
G1 X89.438 Y188.727 E34.5073
G1 X88.561 Y186.533 E34.53693
G1 X88.133 Y184.177 E34.56696
G1 X88.059 Y182.647 E34.58617
G1 X88.3 Y180.061 E34.61874
G1 X88.952 Y177.931 E34.64667
G1 X89.944 Y175.861 E34.67546
G1 X91.11 Y174.123 E34.7017
G1 X92.785 Y172.458 E34.73132
G1 X94.463 Y171.218 E34.75748
G1 X95.531 Y170.654 E34.77263
G1 X63.598 Y170.654 E35.17308
G1 X62.235 Y170.252 E35.1909
G1 X61.607 Y169.899 E35.19994
G1 X60.357 Y168.685 E35.22179
G1 X59.623 Y167.584 E35.23838
G1 X59.111 Y165.844 E35.26113
G1 X59.111 Y92.585 E36.17982
G1 X59.54 Y91.131 E36.19883
G1 X59.79 Y90.676 E36.20534
G1 X61.074 Y89.345 E36.22854
G1 X62.275 Y88.545 E36.24663
G1 X61 Y87.306 E36.26893
G1 X60.266 Y86.205 E36.28552
G1 X59.754 Y84.465 E36.30827
G1 X59.754 Y16.006 E37.16677
G0 F15000 X60.154 Y16.065
G1 F1800 X60.567 Y14.665 E37.18507
G1 X60.721 Y14.375 E37.18919
G1 X61.975 Y13.075 E37.21184
G1 X62.997 Y12.394 E37.22724
G1 X64.623 Y11.915 E37.2485
G1 X158.964 Y11.915 E38.43157
G1 X160.364 Y12.328 E38.44987
G1 X160.654 Y12.482 E38.45399
G1 X161.954 Y13.736 E38.47664
G1 X162.635 Y14.758 E38.49204
G1 X163.114 Y16.384 E38.5133
G1 X163.114 Y84.366 E39.36582
G1 X162.765 Y85.859 E39.38505
G1 X161.627 Y87.505 E39.41014
G1 X160.439 Y88.274 E39.42789
G1 X159.862 Y88.494 E39.43563
G1 X163.121 Y88.494 E39.4765
G1 X164.521 Y88.907 E39.49481
G1 X164.811 Y89.061 E39.49892
G1 X166.111 Y90.315 E39.52157
G1 X166.792 Y91.337 E39.53698
G1 X167.271 Y92.963 E39.55823
G1 X167.271 Y165.961 E40.47365
G1 X166.728 Y167.511 E40.49425
G1 X166.036 Y168.55 E40.50991
G1 X164.716 Y169.641 E40.53138
G1 X162.847 Y170.254 E40.55605
G1 X137.902 Y170.254 E40.86887
G1 X138.567 Y170.694 E40.87887
G1 X140.61 Y172.509 E40.91314
G1 X141.803 Y173.946 E40.93656
G1 X143.113 Y176.101 E40.96818
G1 X143.767 Y177.625 E40.98898
G1 X144.477 Y180.288 E41.02354
G1 X144.676 Y182.584 E41.05244
G1 X144.62 Y184.069 E41.07108
G1 X144.102 Y186.876 E41.10687
G1 X143.614 Y188.306 E41.12582
