;START_OF_HEADER
;HEADER_VERSION:0.1
;FLAVOR:Griffin
;GENERATOR.NAME:Cura_SteamEngine
;GENERATOR.VERSION:5.3.1
;GENERATOR.BUILD_DATE:2023-04-19
;TARGET_MACHINE.NAME:Ultimaker 3 Extended
;EXTRUDER_TRAIN.0.INITIAL_TEMPERATURE:205
;EXTRUDER_TRAIN.0.MATERIAL.VOLUME_USED:62217
;EXTRUDER_TRAIN.0.MATERIAL.GUID:506c9f0d-e3aa-4bd4-b2d2-23e2425b1aa9
;EXTRUDER_TRAIN.0.NOZZLE.DIAMETER:0.4
;EXTRUDER_TRAIN.0.NOZZLE.NAME:AA 0.4
;BUILD_PLATE.INITIAL_TEMPERATURE:60
;PRINT.TIME:19169
;PRINT.GROUPS:1
;PRINT.SIZE.MIN.X:9
;PRINT.SIZE.MIN.Y:6
;PRINT.SIZE.MIN.Z:0.2
;PRINT.SIZE.MAX.X:204.207
;PRINT.SIZE.MAX.Y:163.631
;PRINT.SIZE.MAX.Z:33.4
;SLICE_UUID:1f38de86-8749-4383-9ebe-b7b32b8ede70
;END_OF_HEADER
;Generated with Cura_SteamEngine 5.3.1
T0
M82 ;absolute extrusion mode

G92 E0
M109 S205
G0 F15000 X9 Y6 Z2
G280
G1 F1500 E-6.5
;LAYER_COUNT:167
;LAYER:0
M106 S255
M204 S1000
M205 X20 Y20
G1 F600 Z2.2
G0 F15000 X25.61 Y54.631 Z2.2
;TYPE:SKIRT
G1 F600 Z0.2
G1 F1500 E0
G1 F1800 X27.796 Y53.987 E0.02858
G1 X95.727 Y53.987 E0.88046
G1 X97.397 Y54.48 E0.90229
G1 X97.749 Y54.649 E0.90719
G1 X99.26 Y53.084 E0.93447
G1 X100.717 Y52.113 E0.95643
G1 X102.903 Y51.469 E0.98501
G1 X175.702 Y51.469 E1.89793
G1 X177.446 Y51.984 E1.92074
G1 X178.319 Y52.433 E1.93305
G1 X179.942 Y54 E1.96134
G1 X180.913 Y55.457 E1.9833
G1 X181.557 Y57.643 E2.01187
G1 X181.557 Y101.124 E2.55714
G1 X181.973 Y100.469 E2.56687
G1 X183.311 Y98.866 E2.59306
G1 X184.217 Y98.039 E2.60844
G1 X185.367 Y97.2 E2.62629
G1 X186.873 Y96.372 E2.64784
G1 X188.161 Y95.867 E2.66519
G1 X190 Y95.407 E2.68896
G1 X190.8 Y95.301 E2.69908
G1 X193.186 Y95.301 E2.72901
G1 X193.99 Y95.408 E2.73918
G1 X195.932 Y95.906 E2.76432
G1 X197.578 Y96.586 E2.78665
G1 X198.2 Y96.928 E2.79555
G1 X199.742 Y98.023 E2.81927
G1 X201.094 Y99.304 E2.84263
G1 X201.736 Y100.082 E2.85528
G1 X202.877 Y101.91 E2.8823
G1 X203.258 Y102.731 E2.89365
G1 X203.936 Y104.858 E2.92165
G1 X204.064 Y105.532 E2.93025
G1 X204.207 Y107.975 E2.96094
G1 X204.111 Y109.102 E2.97512
G1 X203.874 Y110.342 E2.99095
G1 X203.311 Y112.087 E3.01395
G1 X202.783 Y113.213 E3.02954
G1 X201.895 Y114.625 E3.05046
G1 X200.588 Y116.167 E3.07581
G1 X199.923 Y116.778 E3.08713
G1 X198.839 Y117.592 E3.10413
G1 X196.799 Y118.717 E3.13335
G1 X196.09 Y118.994 E3.14289
G1 X194.112 Y119.511 E3.16853
G1 X193.109 Y119.644 E3.18122
G1 X190.799 Y119.638 E3.21019
G1 X190.092 Y119.548 E3.21913
G1 X187.806 Y118.958 E3.24873
G1 X186.997 Y118.626 E3.2597
G1 X185.329 Y117.71 E3.28356
G1 X184.259 Y116.93 E3.30017
G1 X182.833 Y115.569 E3.32489
G1 X182.236 Y114.833 E3.33677
G1 X181.557 Y113.765 E3.35264
G1 X181.557 Y157.671 E3.90324
G1 X180.813 Y159.791 E3.93142
G1 X179.825 Y161.279 E3.95381
G1 X177.983 Y162.802 E3.98379
G1 X175.452 Y163.631 E4.01719
G1 X102.58 Y163.631 E4.93103
G1 X100.829 Y163.114 E4.95392
G1 X99.856 Y162.566 E4.96793
G1 X98.339 Y161.094 E4.99443
G1 X97.721 Y160.167 E5.00841
G1 X95.722 Y160.947 E5.03531
G1 X27.473 Y160.947 E5.89118
G1 X25.722 Y160.43 E5.91408
G1 X24.749 Y159.882 E5.92808
G1 X23.232 Y158.41 E5.95459
G1 X22.266 Y156.961 E5.97643
G1 X21.622 Y154.773 E6.00503
G1 X21.622 Y59.842 E7.1955
G1 X22.137 Y58.098 E7.2183
G1 X22.586 Y57.225 E7.23062
G1 X24.153 Y55.602 E7.25891
G1 X25.61 Y54.631 E7.28086
G0 F15000 X25.781 Y54.998
G1 F1800 X27.855 Y54.387 E7.30798
G1 X95.668 Y54.387 E8.15838
G1 X97.284 Y54.864 E8.17951
G1 X97.911 Y55.178 E8.1883
G1 X98.109 Y54.853 E8.19307
G1 X99.518 Y53.393 E8.21852
G1 X100.888 Y52.48 E8.23916
G1 X102.962 Y51.869 E8.26628
G1 X175.643 Y51.869 E9.17772
G1 X177.296 Y52.357 E9.19934
G1 X178.083 Y52.762 E9.21044
G1 X179.633 Y54.258 E9.23745
G1 X180.546 Y55.628 E9.2581
G1 X181.157 Y57.702 E9.28521
G1 X181.157 Y102.744 E9.85006
G1 X181.715 Y101.622 E9.86577
G1 X182.311 Y100.684 E9.87971
G1 X183.581 Y99.161 E9.90457
G1 X184.454 Y98.362 E9.91941
G1 X185.56 Y97.551 E9.93661
G1 X187.066 Y96.723 E9.95817
G1 X188.259 Y96.255 E9.97424
G1 X190.053 Y95.804 E9.99743
G1 X190.853 Y95.698 E10.00755
G1 X193.133 Y95.698 E10.03615
G1 X193.937 Y95.805 E10.04632
G1 X195.832 Y96.293 E10.07086
G1 X197.385 Y96.937 E10.09194
G1 X198.007 Y97.279 E10.10084
G1 X199.51 Y98.349 E10.12398
G1 X200.785 Y99.559 E10.14602
G1 X201.427 Y100.337 E10.15867
G1 X202.514 Y102.078 E10.18441
G1 X202.895 Y102.899 E10.19576
G1 X203.543 Y104.933 E10.22253
G1 X203.671 Y105.607 E10.23113
G1 X203.808 Y107.941 E10.26045
G1 X203.712 Y109.068 E10.27464
G1 X203.493 Y110.219 E10.28933
G1 X202.93 Y111.964 E10.31232
G1 X202.444 Y113 E10.32667
G1 X201.556 Y114.412 E10.34759
G1 X200.317 Y115.872 E10.3716
G1 X199.652 Y116.483 E10.38293
G1 X198.645 Y117.242 E10.39874
G1 X196.653 Y118.344 E10.42729
G1 X195.944 Y118.621 E10.43684
G1 X194.059 Y119.114 E10.46127
G1 X193.056 Y119.247 E10.47396
G1 X190.85 Y119.241 E10.50162
G1 X190.143 Y119.151 E10.51056
G1 X187.957 Y118.587 E10.53887
G1 X187.19 Y118.275 E10.54925
G1 X185.522 Y117.359 E10.57312
G1 X184.495 Y116.607 E10.58908
G1 X183.143 Y115.316 E10.61252
G1 X182.574 Y114.618 E10.62382
G1 X181.545 Y113 E10.64786
G1 X181.157 Y112.187 E10.65916
G1 X181.157 Y157.605 E11.22872
G1 X180.453 Y159.611 E11.25538
G1 X179.525 Y161.008 E11.27641
G1 X177.786 Y162.446 E11.30471
G1 X175.389 Y163.231 E11.33634
G1 X102.639 Y163.231 E12.24865
G1 X100.982 Y162.742 E12.27032
G1 X100.1 Y162.245 E12.28301
G1 X98.648 Y160.836 E12.30838
G1 X97.875 Y159.677 E12.32585
G1 X95.646 Y160.547 E12.35586
G1 X27.532 Y160.547 E13.21004
G1 X25.875 Y160.058 E13.2317
G1 X24.993 Y159.561 E13.2444
G1 X23.541 Y158.152 E13.26977
G1 X22.633 Y156.79 E13.2903
G1 X22.022 Y154.714 E13.31743
G1 X22.022 Y59.901 E14.50642
G1 X22.51 Y58.248 E14.52804
G1 X22.915 Y57.461 E14.53914
G1 X24.411 Y55.911 E14.56615
G1 X25.781 Y54.998 E14.5868
G0 F15000 X25.952 Y55.365
G1 F1800 X24.669 Y56.22 E14.60613
G1 X23.244 Y57.697 E14.63187
G1 X22.883 Y58.398 E14.64176
G1 X22.422 Y59.96 E14.66218
G1 X22.422 Y154.655 E15.84969
G1 X23 Y156.619 E15.87536
G1 X23.85 Y157.894 E15.89458
G1 X25.235 Y159.238 E15.91878
G1 X26.032 Y159.687 E15.93025
G1 X27.591 Y160.147 E15.95064
G1 X95.57 Y160.147 E16.80312
G1 X97.728 Y159.305 E16.83217
G1 X98.045 Y159.09 E16.83697
G1 X98.141 Y159.354 E16.8405
G1 X98.957 Y160.578 E16.85894
G1 X100.342 Y161.922 E16.88315
G1 X101.139 Y162.371 E16.89462
G1 X102.698 Y162.831 E16.915
G1 X175.325 Y162.831 E17.82577
G1 X177.59 Y162.089 E17.85566
G1 X179.225 Y160.737 E17.88226
G1 X180.093 Y159.431 E17.90193
G1 X180.757 Y157.539 E17.92707
G1 X180.757 Y109.504 E18.52945
G1 X180.874 Y110.1 E18.53707
G1 X181.452 Y111.874 E18.56047
G1 X181.883 Y112.785 E18.5731
G1 X182.912 Y114.403 E18.59715
G1 X183.452 Y115.062 E18.60783
G1 X184.732 Y116.285 E18.63004
G1 X185.715 Y117.008 E18.64534
G1 X187.383 Y117.924 E18.6692
G1 X188.107 Y118.216 E18.67899
G1 X190.194 Y118.754 E18.70602
G1 X190.901 Y118.844 E18.71496
G1 X193.003 Y118.85 E18.74132
G1 X194.006 Y118.717 E18.754
G1 X195.798 Y118.248 E18.77723
G1 X196.507 Y117.971 E18.78678
G1 X198.405 Y116.922 E18.81397
G1 X199.381 Y116.188 E18.82929
G1 X200.046 Y115.577 E18.84061
G1 X201.217 Y114.199 E18.86329
G1 X202.105 Y112.787 E18.88421
G1 X202.567 Y111.795 E18.89793
G1 X203.112 Y110.097 E18.92029
G1 X203.313 Y109.034 E18.93386
G1 X203.409 Y107.907 E18.94805
G1 X203.278 Y105.682 E18.976
G1 X203.15 Y105.008 E18.9846
G1 X202.532 Y103.067 E19.01014
G1 X202.151 Y102.246 E19.02149
G1 X201.118 Y100.592 E19.04595
G1 X200.476 Y99.814 E19.0586
G1 X199.235 Y98.64 E19.08002
G1 X197.814 Y97.63 E19.10188
G1 X197.192 Y97.288 E19.11079
G1 X195.679 Y96.663 E19.13131
G1 X193.884 Y96.202 E19.15455
G1 X193.08 Y96.095 E19.16473
G1 X190.906 Y96.095 E19.19199
G1 X190.106 Y96.201 E19.20211
G1 X188.357 Y96.643 E19.22473
G1 X187.213 Y97.095 E19.24016
G1 X185.797 Y97.874 E19.26042
G1 X184.691 Y98.685 E19.27762
G1 X183.852 Y99.456 E19.29191
G1 X182.649 Y100.899 E19.31547
G1 X182.053 Y101.837 E19.32941
G1 X181.523 Y102.903 E19.34434
G1 X180.925 Y104.678 E19.36783
G1 X180.757 Y105.562 E19.37911
G1 X180.757 Y57.761 E19.97855
G1 X180.179 Y55.799 E20.0042
G1 X179.324 Y54.516 E20.02354
G1 X177.847 Y53.091 E20.04927
G1 X177.146 Y52.73 E20.05916
G1 X175.584 Y52.269 E20.07958
G1 X103.021 Y52.269 E20.98955
G1 X101.059 Y52.847 E21.0152
G1 X99.776 Y53.702 E21.03454
G1 X98.397 Y55.131 E21.05944
G1 X98.037 Y55.767 E21.0686
G1 X97.824 Y55.584 E21.07213
G1 X97.171 Y55.248 E21.08134
G1 X95.609 Y54.787 E21.10176
G1 X27.914 Y54.787 E21.95068
G1 X25.952 Y55.365 E21.97633
G0 F15000 X26.123 Y55.732
G1 F1800 X27.973 Y55.187 E22.00051
G1 X95.55 Y55.187 E22.84795
G1 X97.058 Y55.632 E22.86767
G1 X97.637 Y55.938 E22.87588
G1 X98.223 Y56.504 E22.8861
G1 X98.407 Y55.913 E22.89386
G1 X98.72 Y55.373 E22.90169
G1 X100.034 Y54.011 E22.92542
G1 X101.23 Y53.214 E22.94345
G1 X103.08 Y52.669 E22.96763
G1 X175.525 Y52.669 E23.87612
G1 X177.033 Y53.114 E23.89584
G1 X177.612 Y53.42 E23.90405
G1 X179.015 Y54.774 E23.9285
G1 X179.812 Y55.97 E23.94652
G1 X180.357 Y57.82 E23.97071
G1 X180.357 Y157.473 E25.22039
G1 X179.734 Y159.249 E25.244
G1 X178.924 Y160.467 E25.26234
G1 X177.394 Y161.732 E25.28724
G1 X175.261 Y162.431 E25.31538
G1 X102.757 Y162.431 E26.22461
G1 X101.296 Y162 E26.24371
G1 X100.584 Y161.599 E26.25396
G1 X99.266 Y160.32 E26.27699
G1 X98.474 Y159.132 E26.2949
G1 X98.269 Y158.433 E26.30403
G1 X97.583 Y158.932 E26.31467
G1 X95.494 Y159.747 E26.34279
G1 X27.65 Y159.747 E27.19358
G1 X26.189 Y159.316 E27.21268
G1 X25.477 Y158.915 E27.22293
G1 X24.159 Y157.636 E27.24596
G1 X23.367 Y156.448 E27.26386
G1 X22.822 Y154.596 E27.28807
G1 X22.822 Y60.019 E28.4741
G1 X23.267 Y58.511 E28.49382
G1 X23.573 Y57.932 E28.50203
G1 X24.927 Y56.529 E28.52649
G1 X26.123 Y55.732 E28.54451
G0 F15000 X26.294 Y56.099
G1 F1800 X28.032 Y55.587 E28.56723
G1 X95.491 Y55.587 E29.41319
G1 X96.945 Y56.016 E29.4322
G1 X97.4 Y56.266 E29.43871
G1 X98.42 Y57.25 E29.45649
G1 X98.758 Y56.106 E29.47144
G1 X99.008 Y55.651 E29.47795
G1 X100.292 Y54.32 E29.50115
G1 X101.401 Y53.581 E29.51786
G1 X103.139 Y53.069 E29.54058
G1 X175.466 Y53.069 E30.44759
G1 X176.92 Y53.498 E30.4666
G1 X177.375 Y53.748 E30.47311
G1 X178.706 Y55.032 E30.4963
G1 X179.445 Y56.141 E30.51301
G1 X179.957 Y57.879 E30.53573
G1 X179.957 Y157.407 E31.78385
G1 X179.375 Y159.067 E31.80591
G1 X178.623 Y160.197 E31.82293
G1 X177.198 Y161.375 E31.84612
G1 X175.197 Y162.031 E31.87253
G1 X102.816 Y162.031 E32.78021
G1 X101.453 Y161.629 E32.79803
G1 X100.825 Y161.276 E32.80707
G1 X99.575 Y160.062 E32.82892
G1 X98.841 Y158.961 E32.84551
G1 X98.493 Y157.776 E32.861
G1 X97.392 Y158.577 E32.87807
G1 X95.418 Y159.347 E32.90464
G1 X27.709 Y159.347 E33.75374
G1 X26.346 Y158.945 E33.77156
G1 X25.718 Y158.592 E33.7806
G1 X24.468 Y157.378 E33.80245
G1 X23.734 Y156.277 E33.81904
G1 X23.222 Y154.537 E33.84179
G1 X23.222 Y60.078 E35.02634
G1 X23.651 Y58.624 E35.04535
G1 X23.901 Y58.169 E35.05186
G1 X25.185 Y56.838 E35.07505
G1 X26.294 Y56.099 E35.09176
G0 F15000 X26.465 Y56.466
G1 F1800 X28.091 Y55.987 E35.11302
G1 X95.432 Y55.987 E35.9575
G1 X96.832 Y56.4 E35.9758
G1 X97.122 Y56.554 E35.97992
G1 X98.391 Y57.778 E36.00203
G1 X98.729 Y58.269 E36.00951
G1 X98.745 Y57.565 E36.01834
G1 X99.142 Y56.219 E36.03594
G1 X99.296 Y55.929 E36.04005
G1 X100.55 Y54.629 E36.06271
G1 X101.572 Y53.948 E36.07811
G1 X103.198 Y53.469 E36.09936
G1 X175.407 Y53.469 E37.00489
G1 X176.807 Y53.882 E37.0232
G1 X177.097 Y54.036 E37.02731
G1 X178.397 Y55.29 E37.04996
G1 X179.078 Y56.312 E37.06536
G1 X179.557 Y57.938 E37.08662
G1 X179.557 Y157.338 E38.33313
G1 X179.014 Y158.888 E38.35373
G1 X178.322 Y159.927 E38.36939
G1 X177.002 Y161.018 E38.39086
G1 X175.133 Y161.631 E38.41553
G1 X102.875 Y161.631 E39.32167
G1 X101.566 Y161.245 E39.33878
G1 X101.068 Y160.954 E39.34602
G1 X99.884 Y159.804 E39.36672
G1 X99.208 Y158.79 E39.382
G1 X98.745 Y157.216 E39.40257
G1 X98.729 Y156.677 E39.40933
G1 X98.179 Y157.51 E39.42185
G1 X97.201 Y158.222 E39.43702
G1 X95.342 Y158.947 E39.46205
G1 X27.768 Y158.947 E40.30945
G1 X26.459 Y158.561 E40.32656
G1 X25.961 Y158.27 E40.3338
G1 X24.777 Y157.12 E40.35449
G1 X24.101 Y156.106 E40.36978
G1 X23.622 Y154.478 E40.39106
G1 X23.622 Y60.137 E41.57413
G1 X24.035 Y58.737 E41.59243
G1 X24.189 Y58.447 E41.59655
G1 X25.443 Y57.147 E41.6192
G1 X26.465 Y56.466 E41.6346
G0 F15000 X26.636 Y56.833
G1 F1800 X28.15 Y56.387 E41.6544
G1 X95.373 Y56.387 E42.4974
G1 X96.719 Y56.784 E42.515
G1 X96.884 Y56.88 E42.51739
G1 X98.113 Y58.066 E42.53881
G1 X98.736 Y59.001 E42.5529
G1 X99.129 Y60.335 E42.57034
G1 X99.129 Y57.678 E42.60366
G1 X99.526 Y56.332 E42.62126
G1 X99.622 Y56.167 E42.62365
G1 X100.808 Y54.938 E42.64507
G1 X101.743 Y54.315 E42.65916
G1 X103.257 Y53.869 E42.67895
G1 X175.348 Y53.869 E43.583
G1 X176.694 Y54.266 E43.6006
G1 X176.859 Y54.362 E43.60299
G1 X178.088 Y55.548 E43.62441
G1 X178.711 Y56.483 E43.6385
G1 X179.157 Y57.997 E43.65829
G1 X179.157 Y157.269 E44.9032
G1 X178.653 Y158.709 E44.92233
G1 X178.021 Y159.657 E44.93662
G1 X176.806 Y160.661 E44.95638
G1 X175.069 Y161.231 E44.97931
G1 X102.934 Y161.231 E45.88391
G1 X101.679 Y160.861 E45.90032
G1 X101.347 Y160.667 E45.90514
G1 X100.193 Y159.546 E45.92531
G1 X99.575 Y158.619 E45.93929
G1 X99.129 Y157.103 E45.9591
G1 X99.129 Y154.599 E45.9905
G1 X98.857 Y155.757 E46.00542
G1 X97.886 Y157.229 E46.02753
G1 X97.007 Y157.868 E46.04116
G1 X95.266 Y158.547 E46.0646
G1 X27.827 Y158.547 E46.91031
G1 X26.572 Y158.177 E46.92671
G1 X26.24 Y157.983 E46.93154
G1 X25.086 Y156.862 E46.95171
G1 X24.468 Y155.935 E46.96568
G1 X24.022 Y154.419 E46.9855
G1 X24.022 Y60.196 E48.16709
G1 X24.419 Y58.85 E48.18469
G1 X24.515 Y58.685 E48.18708
G1 X25.701 Y57.456 E48.2085
G1 X26.636 Y56.833 E48.22259
G0 F15000 X26.807 Y57.2
G1 F1800 X25.959 Y57.765 E48.23537
G1 X24.803 Y58.963 E48.25625
G1 X24.422 Y60.255 E48.27314
G1 X24.422 Y154.36 E49.45325
G1 X24.835 Y155.764 E49.4716
G1 X25.395 Y156.604 E49.48426
G1 X26.519 Y157.696 E49.50392
G1 X26.685 Y157.793 E49.50633
G1 X27.886 Y158.147 E49.52203
G1 X95.19 Y158.147 E50.36605
G1 X96.813 Y157.514 E50.38789
G1 X97.593 Y156.947 E50.39998
G1 X98.484 Y155.596 E50.42028
G1 X98.782 Y154.328 E50.43661
G1 X98.782 Y60.574 E51.61232
G1 X98.369 Y59.172 E51.63065
G1 X97.804 Y58.324 E51.64343
G1 X96.606 Y57.168 E51.66431
G1 X95.314 Y56.787 E51.6812
G1 X28.209 Y56.787 E52.52272
G1 X26.807 Y57.2 E52.54105
G0 F15000 X26.978 Y57.567
G1 F1800 X28.268 Y57.187 E52.55791
G1 X95.255 Y57.187 E53.39796
G1 X96.399 Y57.524 E53.41291
G1 X97.495 Y58.582 E53.43202
G1 X98.002 Y59.343 E53.44348
G1 X98.382 Y60.633 E53.46035
G1 X98.382 Y154.283 E54.63475
G1 X98.111 Y155.435 E54.64959
G1 X97.298 Y156.667 E54.6681
G1 X96.622 Y157.159 E54.67859
G1 X95.114 Y157.747 E54.69889
G1 X27.945 Y157.747 E55.54121
G1 X26.798 Y157.409 E55.55621
G1 X25.704 Y156.346 E55.57534
G1 X25.202 Y155.593 E55.58668
G1 X24.822 Y154.301 E55.60357
G1 X24.822 Y60.314 E56.7822
G1 X25.159 Y59.17 E56.79716
G1 X26.217 Y58.074 E56.81626
G1 X26.978 Y57.567 E56.82773
G0 F15000 X27.149 Y57.934
G1 F1800 X28.327 Y57.587 E56.84313
G1 X95.196 Y57.587 E57.68169
G1 X96.192 Y57.88 E57.69471
G1 X97.186 Y58.84 E57.71204
G1 X97.635 Y59.514 E57.7222
G1 X97.982 Y60.692 E57.7376
G1 X97.982 Y154.238 E58.9107
G1 X97.738 Y155.274 E58.92405
G1 X97.004 Y156.387 E58.94077
G1 X96.477 Y156.786 E58.94906
G1 X95.038 Y157.347 E58.96842
G1 X28.004 Y157.347 E59.80905
G1 X27.006 Y157.053 E59.8221
G1 X26.013 Y156.088 E59.83947
G1 X25.569 Y155.422 E59.8495
G1 X25.222 Y154.242 E59.86493
G1 X25.222 Y60.373 E61.04208
G1 X25.515 Y59.377 E61.0551
G1 X26.475 Y58.383 E61.07243
G1 X27.149 Y57.934 E61.08258
G0 F15000 X27.32 Y58.301
G1 F1800 X28.386 Y57.987 E61.09652
G1 X95.137 Y57.987 E61.9336
